!!!COM: m.: TKk
!!!OTL: Jakże piękna jesteś
**kern	**dynam	**kern	**dynam	**kern	**dynam	**kern	**dynam	**kern	**dynam	**kern	**dynam	**kern	**text	**dynam	**kern	**text	**dynam	**kern	**kern	**dynam	**kern	**dynam	**kern	**dynam	**kern	**dynam	**kern	**dynam
*part13	*part13	*part12	*part12	*part11	*part11	*part10	*part10	*part9	*part9	*part8	*part8	*part7	*part7	*part7	*part6	*part6	*part6	*part5	*part5	*part5	*part4	*part4	*part3	*part3	*part2	*part2	*part1	*part1
*staff14	*	*staff13	*	*staff12	*	*staff11	*	*staff10	*	*staff9	*	*staff8	*staff8	*	*staff7	*staff7	*	*staff6	*staff5	*	*staff4	*	*staff3	*	*staff2	*	*staff1	*
*I"Contrabbassi	*	*I"Violoncelli	*	*I"Viole	*	*I"Violini 2	*	*I"Violini 1	*	*I"Tenore Basso	*	*I"Soprano Alto	*	*	*I"Tenore solo	*	*	*I"Arpa	*	*	*I"Fagotto	*	*I"Clarinetto in B♭	*	*I"Oboe	*	*I"Flauto	*
*I'C-b.	*	*I'V-c.	*	*I'V-le	*	*I'V-ni 2	*	*I'V-ni 1	*	*I'T B	*	*I'S A	*	*	*I'T solo	*	*	*I'Ar.	*	*	*I'Fag.	*	*I'Cl. in B♭	*	*I'Ob.	*	*I'Fl.	*
*clefF4	*	*clefF4	*	*clefC3	*	*clefG2	*	*clefG2	*	*clefF4	*	*clefG2	*	*	*clefGv2	*	*	*clefF4	*clefG2	*	*clefF4	*	*clefG2	*	*clefG2	*	*clefG2	*
*ITrd0c0	*	*	*	*	*	*	*	*	*	*	*	*	*	*	*	*	*	*	*	*	*	*	*ITrd1c2	*	*	*	*	*
*k[b-]	*	*k[b-]	*	*k[b-]	*	*k[b-]	*	*k[b-]	*	*k[b-]	*	*k[b-]	*	*	*k[b-]	*	*	*k[b-]	*k[b-]	*	*k[b-]	*	*k[b-]	*	*k[b-]	*	*k[b-]	*
*M3/4	*	*M3/4	*	*M3/4	*	*M3/4	*	*M3/4	*	*M3/4	*	*M3/4	*	*	*M3/4	*	*	*M3/4	*M3/4	*	*M3/4	*	*M3/4	*	*M3/4	*	*M3/4	*
=1	=1	=1	=1	=1	=1	=1	=1	=1	=1	=1	=1	=1	=1	=1	=1	=1	=1	=1	=1	=1	=1	=1	=1	=1	=1	=1	=1	=1
4r	.	4r	.	4r	.	4r	.	4cc	mf	4r	.	4r	.	.	4r	.	.	4r	4r	.	4r	.	4r	.	4r	.	4r	.
=2	=2	=2	=2	=2	=2	=2	=2	=2	=2	=2	=2	=2	=2	=2	=2	=2	=2	=2	=2	=2	=2	=2	=2	=2	=2	=2	=2	=2
!LO:TX:a:t=pizz.	!	!	!	!	!	!	!	!	!	!	!	!	!	!	!	!	!	!	!	!	!	!	!	!	!	!	!	!
4BB-	mf	8r	.	8r	.	2f	mf	(4.dd	.	2.r	.	2.r	.	.	2.r	.	.	2.r	2.r	.	2.r	.	2.r	.	2.r	.	2.r	.
.	.	(8BB-	mf	(8F	mf	.	.	.	.	.	.	.	.	.	.	.	.	.	.	.	.	.	.	.	.	.	.	.
4.r	.	8FL	.	8dL	.	.	.	.	.	.	.	.	.	.	.	.	.	.	.	.	.	.	.	.	.	.	.	.
.	.	8DJ	.	8B-J	.	.	.	8cc	.	.	.	.	.	.	.	.	.	.	.	.	.	.	.	.	.	.	.	.
.	.	8B-)	.	8d)	.	8gL	.	8b-L	.	.	.	.	.	.	.	.	.	.	.	.	.	.	.	.	.	.	.	.
8BB-	.	8r	.	8r	.	8fJ	.	8aJ)	.	.	.	.	.	.	.	.	.	.	.	.	.	.	.	.	.	.	.	.
=3	=3	=3	=3	=3	=3	=3	=3	=3	=3	=3	=3	=3	=3	=3	=3	=3	=3	=3	=3	=3	=3	=3	=3	=3	=3	=3	=3	=3
4C	.	8r	.	8r	.	(4e	.	(4g	.	2.r	.	2.r	.	.	2.r	.	.	2.r	2.r	.	2.r	.	2.r	.	2.r	.	2.r	.
.	.	(8C	.	(8G	.	.	.	.	.	.	.	.	.	.	.	.	.	.	.	.	.	.	.	.	.	.	.	.
4.r	.	8GL	.	8eL	.	4g	.	4cc	.	.	.	.	.	.	.	.	.	.	.	.	.	.	.	.	.	.	.	.
.	.	8EJ	.	8cJ	.	.	.	.	.	.	.	.	.	.	.	.	.	.	.	.	.	.	.	.	.	.	.	.
.	.	8c)	.	8e)	.	4cc)	.	4ee)	.	.	.	.	.	.	.	.	.	.	.	.	.	.	.	.	.	.	.	.
8C	.	8r	.	8r	.	.	.	.	.	.	.	.	.	.	.	.	.	.	.	.	.	.	.	.	.	.	.	.
=4	=4	=4	=4	=4	=4	=4	=4	=4	=4	=4	=4	=4	=4	=4	=4	=4	=4	=4	=4	=4	=4	=4	=4	=4	=4	=4	=4	=4
4D	.	8r	.	8r	.	4.a	.	(4.ff	.	2.r	.	2.r	.	.	2.r	.	.	2.r	2.r	.	2.r	.	2.r	.	2.r	.	2.r	.
.	.	(8D	.	(8A	.	.	.	.	.	.	.	.	.	.	.	.	.	.	.	.	.	.	.	.	.	.	.	.
4.r	.	8AL	.	8fL	.	.	.	.	.	.	.	.	.	.	.	.	.	.	.	.	.	.	.	.	.	.	.	.
.	.	8FJ	.	8dJ	.	8g	.	8ee	.	.	.	.	.	.	.	.	.	.	.	.	.	.	.	.	.	.	.	.
.	.	8d)	.	8f)	.	8aL	.	8ddL	.	.	.	.	.	.	.	.	.	.	.	.	.	.	.	.	.	.	.	.
8D	.	8r	.	8r	.	8gJ	.	[8ccJ)	.	.	.	.	.	.	.	.	.	.	.	.	.	.	.	.	.	.	.	.
=5	=5	=5	=5	=5	=5	=5	=5	=5	=5	=5	=5	=5	=5	=5	=5	=5	=5	=5	=5	=5	=5	=5	=5	=5	=5	=5	=5	=5
4AA	.	8r	.	8r	.	2e	.	2cc]	.	2.r	.	2.r	.	.	2.r	.	.	2.r	2.r	.	2.r	.	2.r	.	2.r	.	2.r	.
.	.	(8AA	.	(8E	.	.	.	.	.	.	.	.	.	.	.	.	.	.	.	.	.	.	.	.	.	.	.	.
4.r	.	8EL	.	8cL	.	.	.	.	.	.	.	.	.	.	.	.	.	.	.	.	.	.	.	.	.	.	.	.
.	.	8CJ	.	8AJ	.	.	.	.	.	.	.	.	.	.	.	.	.	.	.	.	.	.	.	.	.	.	.	.
.	.	8A)	.	8c)	.	4g	.	4a	.	.	.	.	.	.	.	.	.	.	.	.	.	.	.	.	.	.	.	.
8AA	.	8r	.	8r	.	.	.	.	.	.	.	.	.	.	.	.	.	.	.	.	.	.	.	.	.	.	.	.
=6	=6	=6	=6	=6	=6	=6	=6	=6	=6	=6	=6	=6	=6	=6	=6	=6	=6	=6	=6	=6	=6	=6	=6	=6	=6	=6	=6	=6
4BB-	.	8r	.	8r	.	2f	.	(4.dd	.	2.r	.	2.r	.	.	2.r	.	.	2.r	2.r	.	2.r	.	2.r	.	2.r	.	2.r	.
.	.	(8BB-	.	(8F	.	.	.	.	.	.	.	.	.	.	.	.	.	.	.	.	.	.	.	.	.	.	.	.
4.r	.	8FL	.	8dL	.	.	.	.	.	.	.	.	.	.	.	.	.	.	.	.	.	.	.	.	.	.	.	.
.	.	8DJ	.	8B-J	.	.	.	8cc	.	.	.	.	.	.	.	.	.	.	.	.	.	.	.	.	.	.	.	.
.	.	8F)	.	8d)	.	8gL	.	8b-L	.	.	.	.	.	.	.	.	.	.	.	.	.	.	.	.	.	.	.	.
8AA	.	8r	.	8r	.	8fJ	.	8aJ)	.	.	.	.	.	.	.	.	.	.	.	.	.	.	.	.	.	.	.	.
=7	=7	=7	=7	=7	=7	=7	=7	=7	=7	=7	=7	=7	=7	=7	=7	=7	=7	=7	=7	=7	=7	=7	=7	=7	=7	=7	=7	=7
4GG	.	8r	.	8r	.	2.d	.	(4b-	.	2.r	.	2.r	.	.	2.r	.	.	2.r	2.r	.	2.r	.	2r	.	2.r	.	2r	.
.	.	(8GG	.	(8D	.	.	.	.	.	.	.	.	.	.	.	.	.	.	.	.	.	.	.	.	.	.	.	.
4.r	.	8DL	.	8B-L	.	.	.	4a	.	.	.	.	.	.	.	.	.	.	.	.	.	.	.	.	.	.	.	.
.	.	8BB-J	.	8GJ	.	.	.	.	.	.	.	.	.	.	.	.	.	.	.	.	.	.	.	.	.	.	.	.
.	.	8G)	.	8c)	.	.	.	4f)	.	.	.	.	.	.	.	.	.	.	.	.	.	.	8dL	mf	.	.	8ffL	mf
8GG	.	8r	.	8r	.	.	.	.	.	.	.	.	.	.	.	.	.	.	.	.	.	.	8B-J	.	.	.	8ddJ	.
=8	=8	=8	=8	=8	=8	=8	=8	=8	=8	=8	=8	=8	=8	=8	=8	=8	=8	=8	=8	=8	=8	=8	=8	=8	=8	=8	=8	=8
4C	.	8r	.	8r	.	[2.e	.	[2.g	.	2.r	.	2.r	.	.	2.r	.	.	2.r	2.r	.	2.r	.	16cLL	.	2.r	.	16eeLL	.
.	.	.	.	.	.	.	.	.	.	.	.	.	.	.	.	.	.	.	.	.	.	.	16d	.	.	.	16ff	.
.	.	(8C	.	(8G	.	.	.	.	.	.	.	.	.	.	.	.	.	.	.	.	.	.	16e	.	.	.	16gg	.
.	.	.	.	.	.	.	.	.	.	.	.	.	.	.	.	.	.	.	.	.	.	.	16fJJ	.	.	.	16aaJJ	.
4.r	.	8GL	.	8cL	.	.	.	.	.	.	.	.	.	.	.	.	.	.	.	.	.	.	8eL	.	.	.	8ggL	.
.	.	8cJ	.	8eJ	.	.	.	.	.	.	.	.	.	.	.	.	.	.	.	.	.	.	16dL	.	.	.	16ffL	.
.	.	.	.	.	.	.	.	.	.	.	.	.	.	.	.	.	.	.	.	.	.	.	16eJJ	.	.	.	16ggJJ	.
.	.	8GL	.	8cL)	.	.	.	.	.	.	.	.	.	.	.	.	.	.	.	.	.	.	8fL	.	.	.	8aaL	.
8GG	.	8EJ)	.	8GJ	.	.	.	.	.	.	.	.	.	.	.	.	.	.	.	.	.	.	8eJ	.	.	.	8cccJ	.
=9	=9	=9	=9	=9	=9	=9	=9	=9	=9	=9	=9	=9	=9	=9	=9	=9	=9	=9	=9	=9	=9	=9	=9	=9	=9	=9	=9	=9
4C	.	2C	<	2G	<	2e]	<	2g]	<	2.r	.	2.r	.	.	2.r	.	.	2r	2.r	.	2.r	.	4f	<	2.r	.	4ddd	<
4.r	.	.	.	.	.	.	.	.	.	.	.	.	.	.	.	.	.	.	.	.	.	.	8gL	.	.	.	8eeeL	.
.	.	.	.	.	.	.	.	.	.	.	.	.	.	.	.	.	.	.	.	.	.	.	8b-J	.	.	.	8dddJ	.
.	.	8CL	.	8EL	.	4g	[[	4cc	[[	.	.	.	.	.	.	.	.	4C	.	f	.	.	(16ccLL	.	.	.	(16cccLL	.
.	.	.	.	.	.	.	.	.	.	.	.	.	.	.	.	.	.	.	.	.	.	.	16g	.	.	.	16ddd	.
8AA	.	8AAJ	[[	8GJ	[[	.	.	.	.	.	.	.	.	.	.	.	.	.	.	.	.	.	16a	.	.	.	16ccc	.
.	.	.	.	.	.	.	.	.	.	.	.	.	.	.	.	.	.	.	.	.	.	.	16eJJ	[[	.	.	16aaJJ	[[
=10	=10	=10	=10	=10	=10	=10	=10	=10	=10	=10	=10	=10	=10	=10	=10	=10	=10	=10	=10	=10	=10	=10	=10	=10	=10	=10	=10	=10
4BB-	f	8r	.	8r	.	2f	f	(4.dd	f	2.r	.	2.r	.	.	2.r	.	.	4BB-: 4F: 4B-:	4f: 4b-: 4dd: 4ff: 4bb-:	.	4BB-	f	2d)	f	2.r	.	2ff)	f
.	.	(8BB-	f	(8F	f	.	.	.	.	.	.	.	.	.	.	.	.	.	.	.	.	.	.	.	.	.	.	.
4.r	.	8FL	.	8dL	.	.	.	.	.	.	.	.	.	.	.	.	.	4r	4r	.	8B-L	.	.	.	.	.	.	.
.	.	8DJ	.	8B-J	.	.	.	8cc	.	.	.	.	.	.	.	.	.	.	.	.	8FJ	.	.	.	.	.	.	.
.	.	8B-)	.	8d)	.	8gL	.	8b-L	.	.	.	.	.	.	.	.	.	4r	4r	.	8DL	.	4r	.	.	.	4r	.
8BB-	.	8r	.	8r	.	8fJ	.	8aJ)	.	.	.	.	.	.	.	.	.	.	.	.	8BB-J	.	.	.	.	.	.	.
=11	=11	=11	=11	=11	=11	=11	=11	=11	=11	=11	=11	=11	=11	=11	=11	=11	=11	=11	=11	=11	=11	=11	=11	=11	=11	=11	=11	=11
4C	.	8r	.	8r	.	(4e	.	(4g	.	2.r	.	2.r	.	.	2.r	.	.	4C: 4G: 4c:	4e: 4g: 4cc: 4ee: 4gg:	.	4C	.	2.r	.	8eeL	f	2.r	.
.	.	(8C	.	(8G	.	.	.	.	.	.	.	.	.	.	.	.	.	.	.	.	.	.	.	.	8ddJ	.	.	.
4.r	.	8GL	.	8eL	.	4g	.	4cc	.	.	.	.	.	.	.	.	.	4r	4r	.	4c	.	.	.	8ccL	.	.	.
.	.	8EJ	.	8cJ	.	.	.	.	.	.	.	.	.	.	.	.	.	.	.	.	.	.	.	.	8gJ	.	.	.
.	.	8c)	.	8e)	.	4cc)	.	4ee)	.	.	.	.	.	.	.	.	.	4r	4r	.	8GL	.	.	.	8eL	.	.	.
8C	.	8r	.	8r	.	.	.	.	.	.	.	.	.	.	.	.	.	.	.	.	8EJ	.	.	.	8cJ	.	.	.
=12	=12	=12	=12	=12	=12	=12	=12	=12	=12	=12	=12	=12	=12	=12	=12	=12	=12	=12	=12	=12	=12	=12	=12	=12	=12	=12	=12	=12
4D	.	8r	.	8r	.	4.a	.	(4.ff	.	2.r	.	2.r	.	.	2.r	.	.	4D: 4A:	4d: 4f: 4a: 4dd: 4ff:	.	4D	.	2.r	.	8dL	.	2.r	.
.	.	(8D	.	(8A	.	.	.	.	.	.	.	.	.	.	.	.	.	.	.	.	.	.	.	.	8fJ	.	.	.
4.r	.	8AL	.	8fL	.	.	.	.	.	.	.	.	.	.	.	.	.	4r	4r	.	4AA	.	.	.	8aL	.	.	.
.	.	8FJ	.	8dJ	.	8g	.	8ee	.	.	.	.	.	.	.	.	.	.	.	.	.	.	.	.	8fJ	.	.	.
.	.	8d)	.	8f)	.	8aL	.	8ddL	.	.	.	.	.	.	.	.	.	4r	4r	.	8DDL	.	.	.	8ddL	.	.	.
8D	.	8r	.	8r	.	8gJ	.	[8ccJ)	.	.	.	.	.	.	.	.	.	.	.	.	8FFJ	.	.	.	8aJ	.	.	.
=13	=13	=13	=13	=13	=13	=13	=13	=13	=13	=13	=13	=13	=13	=13	=13	=13	=13	=13	=13	=13	=13	=13	=13	=13	=13	=13	=13	=13
4AA	.	8r	.	8r	.	2e	.	2cc]	.	2.r	.	2.r	.	.	2.r	.	.	4AA: 4E: 4A:	4e: 4a: 4cc: 4ee:	.	2AA	.	2.r	.	(4cc	.	2.r	.
.	.	(8AA	.	(8E	.	.	.	.	.	.	.	.	.	.	.	.	.	.	.	.	.	.	.	.	.	.	.	.
4.r	.	8EL	.	8cL	.	.	.	.	.	.	.	.	.	.	.	.	.	4r	4r	.	.	.	.	.	4e	.	.	.
.	.	8CJ	.	8AJ	.	.	.	.	.	.	.	.	.	.	.	.	.	.	.	.	.	.	.	.	.	.	.	.
.	.	8A)	.	8c)	.	4g	.	4a	.	.	.	.	.	.	.	.	.	4r	4r	.	16ELL	.	.	.	4a	.	.	.
.	.	.	.	.	.	.	.	.	.	.	.	.	.	.	.	.	.	.	.	.	16D	.	.	.	.	.	.	.
8AA	.	8r	.	8r	.	.	.	.	.	.	.	.	.	.	.	.	.	.	.	.	16C	.	.	.	.	.	.	.
.	.	.	.	.	.	.	.	.	.	.	.	.	.	.	.	.	.	.	.	.	16AAJJ	.	.	.	.	.	.	.
=14	=14	=14	=14	=14	=14	=14	=14	=14	=14	=14	=14	=14	=14	=14	=14	=14	=14	=14	=14	=14	=14	=14	=14	=14	=14	=14	=14	=14
4BB-	.	8r	.	8r	.	2f	.	(4.dd	.	2.r	.	2.r	.	.	2.r	.	.	4BB-: 4F: 4B-:	4d: 4f: 4b-: 4dd:	.	4BB-	.	2.r	.	2f)	.	2.r	.
.	.	(8BB-	.	(8F	.	.	.	.	.	.	.	.	.	.	.	.	.	.	.	.	.	.	.	.	.	.	.	.
4.r	.	8FL	.	8dL	.	.	.	.	.	.	.	.	.	.	.	.	.	4r	4r	.	4D	.	.	.	.	.	.	.
.	.	8DJ	.	8B-J	.	.	.	8cc	.	.	.	.	.	.	.	.	.	.	.	.	.	.	.	.	.	.	.	.
.	.	8F)	.	8d)	.	8gL	.	8b-L	.	.	.	.	.	.	.	.	.	4r	4r	.	8FL	.	.	.	4r	.	.	.
8AA	.	8r	.	8r	.	8fJ	.	8aJ)	.	.	.	.	.	.	.	.	.	.	.	.	8AJ	.	.	.	.	.	.	.
=15	=15	=15	=15	=15	=15	=15	=15	=15	=15	=15	=15	=15	=15	=15	=15	=15	=15	=15	=15	=15	=15	=15	=15	=15	=15	=15	=15	=15
4GG	.	8r	.	8r	.	2.d	.	(4b-	.	2.r	.	2.r	.	.	2.r	.	.	4GG: 4D: 4G:	4d: 4g: 4b-: 4dd:	.	4G	.	2.r	.	2.r	.	2.r	.
.	.	(8GG	.	(8D	.	.	.	.	.	.	.	.	.	.	.	.	.	.	.	.	.	.	.	.	.	.	.	.
4.r	.	8DL	.	8B-L	.	.	.	4a	.	.	.	.	.	.	.	.	.	4r	4r	.	8DL	.	.	.	.	.	.	.
.	.	8BB-J	.	8GJ	.	.	.	.	.	.	.	.	.	.	.	.	.	.	.	.	8BB-J	.	.	.	.	.	.	.
.	.	8G)	.	8c)	.	.	.	4f)	.	.	.	.	.	.	.	.	.	4r	4r	.	8GGL	.	.	.	.	.	.	.
8GG	.	8r	.	8r	.	.	.	.	.	.	.	.	.	.	.	.	.	.	.	.	8DJ	.	.	.	.	.	.	.
=16	=16	=16	=16	=16	=16	=16	=16	=16	=16	=16	=16	=16	=16	=16	=16	=16	=16	=16	=16	=16	=16	=16	=16	=16	=16	=16	=16	=16
4C	.	8r	.	8r	.	[2.e	.	[2.g	.	2.r	.	2.r	.	.	2.r	.	.	16CLL	4.r	.	2.C	.	8eL	.	2.r	.	2r	.
.	.	.	.	.	.	.	.	.	.	.	.	.	.	.	.	.	.	16G	.	.	.	.	.	.	.	.	.	.
.	.	(8C	.	(8G	.	.	.	.	.	.	.	.	.	.	.	.	.	16E	.	.	.	.	8fJ	.	.	.	.	.
.	.	.	.	.	.	.	.	.	.	.	.	.	.	.	.	.	.	16cJJ	.	.	.	.	.	.	.	.	.	.
4.r	.	8GL	.	8cL	.	.	.	.	.	.	.	.	.	.	.	.	.	16GLL	.	.	.	.	8eL	.	.	.	.	.
.	.	.	.	.	.	.	.	.	.	.	.	.	.	.	.	.	.	16eJJ	.	.	.	.	.	.	.	.	.	.
.	.	8cJ	.	8eJ	.	.	.	.	.	.	.	.	.	.	.	.	.	16r	16cLL	.	.	.	8dJ	.	.	.	.	.
.	.	.	.	.	.	.	.	.	.	.	.	.	.	.	.	.	.	16r	16gJJ	.	.	.	.	.	.	.	.	.
.	.	8GL	.	8cL)	.	.	.	.	.	.	.	.	.	.	.	.	.	4r	16eLL	.	.	.	8cL	.	.	.	8eeL	.
.	.	.	.	.	.	.	.	.	.	.	.	.	.	.	.	.	.	.	16cc	.	.	.	.	.	.	.	.	.
8GG	.	8EJ)	.	8GJ	.	.	.	.	.	.	.	.	.	.	.	.	.	.	16g	.	.	.	8dJ	.	.	.	8ffJ	.
.	.	.	.	.	.	.	.	.	.	.	.	.	.	.	.	.	.	.	16eeJJ	.	.	.	.	.	.	.	.	.
=17	=17	=17	=17	=17	=17	=17	=17	=17	=17	=17	=17	=17	=17	=17	=17	=17	=17	=17	=17	=17	=17	=17	=17	=17	=17	=17	=17	=17
4C	.	2.C	.	2G	.	2e]	.	4g]	.	2.r	.	2.r	.	.	2.r	.	.	2C: 2G: 2c:	2e: 2g: 2cc: 2ee: 2gg:	.	2.r	.	16eLL	.	4r	.	4gg	.
.	.	.	.	.	.	.	.	.	.	.	.	.	.	.	.	.	.	.	.	.	.	.	16d	.	.	.	.	.
.	.	.	.	.	.	.	.	.	.	.	.	.	.	.	.	.	.	.	.	.	.	.	16e	.	.	.	.	.
.	.	.	.	.	.	.	.	.	.	.	.	.	.	.	.	.	.	.	.	.	.	.	16fJJ	.	.	.	.	.
4r	.	.	.	.	.	.	.	4cc	.	.	.	.	.	.	.	.	.	.	.	.	.	.	2g	.	8gL	.	4cc	.
.	.	.	.	.	.	.	.	.	.	.	.	.	.	.	.	.	.	.	.	.	.	.	.	.	8eJ	.	.	.
4C	.	.	.	4c	.	4g	.	8eeL	.	.	.	.	.	.	.	.	.	4r	4r	.	.	.	.	.	8gL	.	8eeL	.
.	.	.	.	.	.	.	.	8ffJ	.	.	.	.	.	.	.	.	.	.	.	.	.	.	.	.	8ccJ	.	8ffJ	.
=18	=18	=18	=18	=18	=18	=18	=18	=18	=18	=18	=18	=18	=18	=18	=18	=18	=18	=18	=18	=18	=18	=18	=18	=18	=18	=18	=18	=18
4D	.	2.D	.	[2.c	.	2.b-	.	[2.ff	.	2.r	.	2.r	.	.	2.r	.	.	2.r	2.r	.	2.r	.	8r	.	2.b-	.	[2.ff	.
.	.	.	.	.	.	.	.	.	.	.	.	.	.	.	.	.	.	.	.	.	.	.	8f	.	.	.	.	.
8r	.	.	.	.	.	.	.	.	.	.	.	.	.	.	.	.	.	.	.	.	.	.	8b-L	.	.	.	.	.
8B-	.	.	.	.	.	.	.	.	.	.	.	.	.	.	.	.	.	.	.	.	.	.	8ccJ	.	.	.	.	.
8FL	.	.	.	.	.	.	.	.	.	.	.	.	.	.	.	.	.	.	.	.	.	.	8ddL	.	.	.	.	.
8DJ	.	.	.	.	.	.	.	.	.	.	.	.	.	.	.	.	.	.	.	.	.	.	8b-J	.	.	.	.	.
=19	=19	=19	=19	=19	=19	=19	=19	=19	=19	=19	=19	=19	=19	=19	=19	=19	=19	=19	=19	=19	=19	=19	=19	=19	=19	=19	=19	=19
2FFZ	.	2FZ	.	2cZ]	.	2aZ	.	2ffZ]	.	2.r	.	2.r	.	.	2r	.	.	2.r	2.r	.	2.r	.	2ccZ	.	2aZ	.	2ffZ]	.
4r	.	4r	.	8dL	mf	4r	.	4r	.	.	.	.	.	.	8DL	Jak-	mf	.	.	.	.	.	4r	.	4r	.	4r	.
.	.	.	.	8eJ	.	.	.	.	.	.	.	.	.	.	8EJ	-że	.	.	.	.	.	.	.	.	.	.	.	.
=20	=20	=20	=20	=20	=20	=20	=20	=20	=20	=20	=20	=20	=20	=20	=20	=20	=20	=20	=20	=20	=20	=20	=20	=20	=20	=20	=20	=20
!	!	!LO:TX:a:t=pizz.	!	!	!	!	!	!	!	!	!	!	!	!	!	!	!	!	!	!	!	!	!	!	!	!	!	!
2.r	.	8DDL	mp	4.f	.	4r	.	4r	.	2.r	.	2.r	.	.	(4.F	pięk-	.	2.r	2.r	.	2.r	.	2.r	.	2.r	.	2.r	.
.	.	8AAJ	.	.	.	.	.	.	.	.	.	.	.	.	.	.	.	.	.	.	.	.	.	.	.	.	.	.
!	!	!	!	!	!	!LO:TX:a:t=pizz.	!	!LO:TX:a:t=pizz.	!	!	!	!	!	!	!	!	!	!	!	!	!	!	!	!	!	!	!	!
.	.	4D	.	.	.	4a	mp	4dd	mp	.	.	.	.	.	.	.	.	.	.	.	.	.	.	.	.	.	.	.
.	.	.	.	8e	.	.	.	.	.	.	.	.	.	.	8E)	.	.	.	.	.	.	.	.	.	.	.	.	.
.	.	4r	.	8fL	.	4a	.	4dd	.	.	.	.	.	.	8FL	.	.	.	.	.	.	.	.	.	.	.	.	.
.	.	.	.	8dJ	.	.	.	.	.	.	.	.	.	.	8DJ	-na	.	.	.	.	.	.	.	.	.	.	.	.
=21	=21	=21	=21	=21	=21	=21	=21	=21	=21	=21	=21	=21	=21	=21	=21	=21	=21	=21	=21	=21	=21	=21	=21	=21	=21	=21	=21	=21
2.r	.	8AAL	.	4e	.	4r	.	4r	.	2.r	.	2.r	.	.	4E	jes-	.	2.r	2.r	.	2.r	.	2.r	.	2.r	.	2.r	.
.	.	8EJ	.	.	.	.	.	.	.	.	.	.	.	.	.	.	.	.	.	.	.	.	.	.	.	.	.	.
.	.	4A	.	4a	.	4cc#X	.	4ee	.	.	.	.	.	.	4A	-teś	.	.	.	.	.	.	.	.	.	.	.	.
.	.	4r	.	8dL	.	4a	.	8ddL	.	.	.	.	.	.	(8DL	i	.	.	.	.	.	.	.	.	.	.	.	.
.	.	.	.	8eJ	.	.	.	8cc#XJ	.	.	.	.	.	.	8EJ)	.	.	.	.	.	.	.	.	.	.	.	.	.
=22	=22	=22	=22	=22	=22	=22	=22	=22	=22	=22	=22	=22	=22	=22	=22	=22	=22	=22	=22	=22	=22	=22	=22	=22	=22	=22	=22	=22
2.r	.	8DDL	.	4.f	.	4r	.	4r	.	2.r	.	2.r	.	.	(4.F	peł-	.	2.r	2.r	.	2.r	.	2.r	.	2.r	.	2.r	.
.	.	8AAJ	.	.	.	.	.	.	.	.	.	.	.	.	.	.	.	.	.	.	.	.	.	.	.	.	.	.
.	.	4D	.	.	.	4a	.	4dd	.	.	.	.	.	.	.	.	.	.	.	.	.	.	.	.	.	.	.	.
.	.	.	.	8e	.	.	.	.	.	.	.	.	.	.	8E)	.	.	.	.	.	.	.	.	.	.	.	.	.
.	.	4r	.	8fL	.	4a	.	4dd	.	.	.	.	.	.	8FL	.	.	.	.	.	.	.	.	.	.	.	.	.
.	.	.	.	8dJ	.	.	.	.	.	.	.	.	.	.	8DJ	-na	.	.	.	.	.	.	.	.	.	.	.	.
=23	=23	=23	=23	=23	=23	=23	=23	=23	=23	=23	=23	=23	=23	=23	=23	=23	=23	=23	=23	=23	=23	=23	=23	=23	=23	=23	=23	=23
2.r	.	8AAL	.	4e	.	4r	.	4r	.	2.r	.	2.r	.	.	4E	wdzię-	.	2.r	2.r	.	2.r	.	2.r	.	2.r	.	2.r	.
.	.	8EJ	.	.	.	.	.	.	.	.	.	.	.	.	.	.	.	.	.	.	.	.	.	.	.	.	.	.
.	.	4A	.	4a	.	4cc#X	.	4ee	.	.	.	.	.	.	4A	-ku,	.	.	.	.	.	.	.	.	.	.	.	.
.	.	4r	.	4e	.	4a	.	4cc#X	.	.	.	.	.	.	4E	U-	.	.	.	.	.	.	.	.	.	.	.	.
=24	=24	=24	=24	=24	=24	=24	=24	=24	=24	=24	=24	=24	=24	=24	=24	=24	=24	=24	=24	=24	=24	=24	=24	=24	=24	=24	=24	=24
2.r	.	8GGL	.	2f	.	8r	.	8r	.	2.r	.	2.r	.	.	2F	-mi-	.	2.r	2.r	.	2.r	.	2.r	.	2.r	.	2.r	.
.	.	8DJ	.	.	.	8g	.	8b-	.	.	.	.	.	.	.	.	.	.	.	.	.	.	.	.	.	.	.	.
.	.	4G	.	.	.	16b-LL	.	16ddLL	.	.	.	.	.	.	.	.	.	.	.	.	.	.	.	.	.	.	.	.
.	.	.	.	.	.	16a	.	16cc	.	.	.	.	.	.	.	.	.	.	.	.	.	.	.	.	.	.	.	.
.	.	.	.	.	.	16g	.	16b-	.	.	.	.	.	.	.	.	.	.	.	.	.	.	.	.	.	.	.	.
.	.	.	.	.	.	16fJJ	.	16aJJ	.	.	.	.	.	.	.	.	.	.	.	.	.	.	.	.	.	.	.	.
.	.	8r	.	4e	.	4g	.	4b-	.	.	.	.	.	.	4E	-ło-	.	.	.	.	.	.	.	.	.	.	.	.
.	.	8A	.	.	.	.	.	.	.	.	.	.	.	.	.	.	.	.	.	.	.	.	.	.	.	.	.	.
=25	=25	=25	=25	=25	=25	=25	=25	=25	=25	=25	=25	=25	=25	=25	=25	=25	=25	=25	=25	=25	=25	=25	=25	=25	=25	=25	=25	=25
2.r	.	8B-L	.	2d	.	8r	.	8r	.	2.r	.	2.r	.	.	2D	-wa-	.	2.r	2.r	.	2.r	.	2.r	.	2.r	.	2.r	.
.	.	8FJ	.	.	.	8b-	.	8dd	.	.	.	.	.	.	.	.	.	.	.	.	.	.	.	.	.	.	.	.
.	.	8DL	.	.	.	16b-LL	.	16ffLL	.	.	.	.	.	.	.	.	.	.	.	.	.	.	.	.	.	.	.	.
.	.	.	.	.	.	16a	.	16ee	.	.	.	.	.	.	.	.	.	.	.	.	.	.	.	.	.	.	.	.
.	.	8BB-J	.	.	.	16g	.	16dd	.	.	.	.	.	.	.	.	.	.	.	.	.	.	.	.	.	.	.	.
.	.	.	.	.	.	16fJJ	.	16ccJJ	.	.	.	.	.	.	.	.	.	.	.	.	.	.	.	.	.	.	.	.
.	.	8FFL	.	8c#XL	.	4g	.	4b-	.	.	.	.	.	.	(8C#XL	-na	.	.	.	.	.	.	.	.	.	.	.	.
.	.	8BB-J	.	8dJ	.	.	.	.	.	.	.	.	.	.	8DJ)	.	.	.	.	.	.	.	.	.	.	.	.	.
=26	=26	=26	=26	=26	=26	=26	=26	=26	=26	=26	=26	=26	=26	=26	=26	=26	=26	=26	=26	=26	=26	=26	=26	=26	=26	=26	=26	=26
2.r	.	8AAL	.	[2.e	.	4a	.	4dd	.	2.r	.	2.r	.	.	2.E	ma.	.	2.r	2.r	.	2.r	.	8AL	mp	2.r	.	2.r	.
.	.	8EJ	.	.	.	.	.	.	.	.	.	.	.	.	.	.	.	.	.	.	.	.	16c#XL	.	.	.	.	.
.	.	.	.	.	.	.	.	.	.	.	.	.	.	.	.	.	.	.	.	.	.	.	16dJJ	.	.	.	.	.
.	.	4A	.	.	.	4a	.	4ee	.	.	.	.	.	.	.	.	.	.	.	.	.	.	8eL	.	.	.	.	.
.	.	.	.	.	.	.	.	.	.	.	.	.	.	.	.	.	.	.	.	.	.	.	8fJ	.	.	.	.	.
.	.	4E	.	.	.	4g	.	4a	.	.	.	.	.	.	.	.	.	.	.	.	.	.	8eL	.	.	.	.	.
.	.	.	.	.	.	.	.	.	.	.	.	.	.	.	.	.	.	.	.	.	.	.	8dJ	.	.	.	.	.
=27	=27	=27	=27	=27	=27	=27	=27	=27	=27	=27	=27	=27	=27	=27	=27	=27	=27	=27	=27	=27	=27	=27	=27	=27	=27	=27	=27	=27
*	*	*	*	*	*	*	*	*	*	*^	*	*^	*	*	*	*	*	*	*	*	*	*	*	*	*	*	*	*
2r	.	4AA	.	2e]	.	4a	.	4cc#X	.	2r	2r	.	2r	2r	.	.	2.r	.	.	2.r	2.r	.	2.r	.	8c#XL	.	2r	.	2.r	.
.	.	.	.	.	.	.	.	.	.	.	.	.	.	.	.	.	.	.	.	.	.	.	.	.	8dJ	.	.	.	.	.
.	.	4r	.	.	.	4r	.	4r	.	.	.	.	.	.	.	.	.	.	.	.	.	.	.	.	4e	.	.	.	.	.
!	!	!LO:TX:a:t=arco	!	!	!	!LO:TX:a:t=arco	!	!LO:TX:a:t=arco	!	!	!	!	!	!	!	!	!	!	!	!	!	!	!	!	!	!	!	!	!	!
8r	.	8DL	mf	8AL	.	8dL	mf	8fL	mf	8AL	8DL	mf mf	8fL	8dL	Jak-	mf mf	.	.	.	.	.	.	.	.	4r	.	8fL	mf	.	.
8C	mf	8CJ	.	8cJ	.	8eJ	.	8gJ	.	8cJ	8CJ	.	8gJ	8eJ	-że	.	.	.	.	.	.	.	.	.	.	.	8gJ	.	.	.
=28	=28	=28	=28	=28	=28	=28	=28	=28	=28	=28	=28	=28	=28	=28	=28	=28	=28	=28	=28	=28	=28	=28	=28	=28	=28	=28	=28	=28	=28	=28
8FL	.	2.F	.	2.c	.	2.f	.	2.a	.	(4.c	[2F	.	(4.a	[2f	pięk-	.	2.r	.	.	2.r	2.r	.	2.r	.	2.r	.	4.a	.	2.r	.
8cJ	.	.	.	.	.	.	.	.	.	.	.	.	.	.	.	.	.	.	.	.	.	.	.	.	.	.	.	.	.	.
8A	.	.	.	.	.	.	.	.	.	.	.	.	.	.	.	.	.	.	.	.	.	.	.	.	.	.	.	.	.	.
4r	.	.	.	.	.	.	.	.	.	8B-L	.	.	8gL	.	.	.	.	.	.	.	.	.	.	.	.	.	8g	.	.	.
.	.	.	.	.	.	.	.	.	.	8cJ)	8FL]	.	8aJ)	8fL]	.	.	.	.	.	.	.	.	.	.	.	.	8aL	.	.	.
8F	.	.	.	.	.	.	.	.	.	8A	8FJ	.	8f	8fJ	-na	.	.	.	.	.	.	.	.	.	.	.	8fJ	.	.	.
=29	=29	=29	=29	=29	=29	=29	=29	=29	=29	=29	=29	=29	=29	=29	=29	=29	=29	=29	=29	=29	=29	=29	=29	=29	=29	=29	=29	=29	=29	=29
8CL	.	2.C	.	2c	.	4f	.	2g	.	8cL	4C	.	4g	4f	jes-	.	2.r	.	.	2.r	2.r	.	2.r	.	2.r	.	4g	.	2.r	.
8GJ	.	.	.	.	.	.	.	.	.	16B-L	.	.	.	.	.	.	.	.	.	.	.	.	.	.	.	.	.	.	.	.
.	.	.	.	.	.	.	.	.	.	16AJJ	.	.	.	.	.	.	.	.	.	.	.	.	.	.	.	.	.	.	.	.
8c	.	.	.	.	.	4e	.	.	.	4G	4C	.	4cc	4e	-teś	.	.	.	.	.	.	.	.	.	.	.	4cc	.	.	.
4r	.	.	.	.	.	.	.	.	.	.	.	.	.	.	.	.	.	.	.	.	.	.	.	.	.	.	.	.	.	.
.	.	.	.	8AL	.	8dL	.	8fL	.	(8AL	4C	.	(8fL	(8dL	i	.	.	.	.	.	.	.	.	.	.	.	8fL	.	.	.
8E	.	.	.	8cJ	.	8eJ	.	8gJ	.	8cJ)	.	.	8gJ)	8eJ)	.	.	.	.	.	.	.	.	.	.	.	.	8gJ	.	.	.
=30	=30	=30	=30	=30	=30	=30	=30	=30	=30	=30	=30	=30	=30	=30	=30	=30	=30	=30	=30	=30	=30	=30	=30	=30	=30	=30	=30	=30	=30	=30
8FL	.	2.F	.	2.c	.	2.f	.	2.a	.	(4.c	[2F	.	(4.a	[2f	peł-	.	2.r	.	.	2.r	2.r	.	2.r	.	2.r	.	4.a	.	2.r	.
8cJ	.	.	.	.	.	.	.	.	.	.	.	.	.	.	.	.	.	.	.	.	.	.	.	.	.	.	.	.	.	.
8A	.	.	.	.	.	.	.	.	.	.	.	.	.	.	.	.	.	.	.	.	.	.	.	.	.	.	.	.	.	.
4r	.	.	.	.	.	.	.	.	.	8B-L	.	.	8gL	.	.	.	.	.	.	.	.	.	.	.	.	.	8g	.	.	.
.	.	.	.	.	.	.	.	.	.	8cJ)	8FL]	.	8aJ)	8fL]	.	.	.	.	.	.	.	.	.	.	.	.	8aL	.	.	.
8F	.	.	.	.	.	.	.	.	.	8A	8FJ	.	8f	8fJ	-na	.	.	.	.	.	.	.	.	.	.	.	8fJ	.	.	.
=31	=31	=31	=31	=31	=31	=31	=31	=31	=31	=31	=31	=31	=31	=31	=31	=31	=31	=31	=31	=31	=31	=31	=31	=31	=31	=31	=31	=31	=31	=31
8CL	.	2C	.	2c	.	4f	.	2g	.	8cL	4C	.	4g	4f	wdzię-	.	2.r	.	.	2.r	2.r	.	2.r	.	2.r	.	4g	.	2.r	.
8GJ	.	.	.	.	.	.	.	.	.	16B-L	.	.	.	.	.	.	.	.	.	.	.	.	.	.	.	.	.	.	.	.
.	.	.	.	.	.	.	.	.	.	16AJJ	.	.	.	.	.	.	.	.	.	.	.	.	.	.	.	.	.	.	.	.
8c	.	.	.	.	.	4e	.	.	.	4G	4C	.	4cc	4e	-ku,	.	.	.	.	.	.	.	.	.	.	.	16ccLL	.	.	.
.	.	.	.	.	.	.	.	.	.	.	.	.	.	.	.	.	.	.	.	.	.	.	.	.	.	.	16b-	.	.	.
4r	.	.	.	.	.	.	.	.	.	.	.	.	.	.	.	.	.	.	.	.	.	.	.	.	.	.	16a	.	.	.
.	.	.	.	.	.	.	.	.	.	.	.	.	.	.	.	.	.	.	.	.	.	.	.	.	.	.	16gJJ	.	.	.
.	.	4AA	.	(16ALL	.	4r	.	(16fLL	.	4c	4AA	.	4cc	4f	U-	.	.	.	.	.	.	.	.	.	.	.	8fL	.	.	.
.	.	.	.	16B-	.	.	.	16g	.	.	.	.	.	.	.	.	.	.	.	.	.	.	.	.	.	.	.	.	.	.
8AA	.	.	.	16c	.	.	.	16a	.	.	.	.	.	.	.	.	.	.	.	.	.	.	.	.	.	.	[8ccJ	.	.	.
.	.	.	.	16dJJ)	.	.	.	16b-JJ)	.	.	.	.	.	.	.	.	.	.	.	.	.	.	.	.	.	.	.	.	.	.
=32	=32	=32	=32	=32	=32	=32	=32	=32	=32	=32	=32	=32	=32	=32	=32	=32	=32	=32	=32	=32	=32	=32	=32	=32	=32	=32	=32	=32	=32	=32
8BB-L	.	2BB-	.	2.d	.	2.f	.	2cc	.	2d	2BB-	.	2cc	2f	-mi-	.	2.r	.	.	2.r	2.r	.	2.r	.	2.r	.	2cc]	.	2r	.
8FJ	.	.	.	.	.	.	.	.	.	.	.	.	.	.	.	.	.	.	.	.	.	.	.	.	.	.	.	.	.	.
8B-	.	.	.	.	.	.	.	.	.	.	.	.	.	.	.	.	.	.	.	.	.	.	.	.	.	.	.	.	.	.
4r	.	.	.	.	.	.	.	.	.	.	.	.	.	.	.	.	.	.	.	.	.	.	.	.	.	.	.	.	.	.
.	.	8BB-L	.	.	.	.	.	4b-	.	4d	8BB-L	.	4b-	4f	-ło-	.	.	.	.	.	.	.	.	.	.	.	4b-	.	8ddL	mf
8C	.	8CJ	.	.	.	.	.	.	.	.	8CJ	.	.	.	.	.	.	.	.	.	.	.	.	.	.	.	.	.	8eeJ	.
=33	=33	=33	=33	=33	=33	=33	=33	=33	=33	=33	=33	=33	=33	=33	=33	=33	=33	=33	=33	=33	=33	=33	=33	=33	=33	=33	=33	=33	=33	=33
8DL	.	2.D	.	8FL	.	8dL	.	8aL	.	(4d	2D	.	(4.a	(4.f	-wa-	.	2.r	.	.	2.r	2.r	.	2.r	.	2.r	.	4.a	.	4.ff	.
8AJ	.	.	.	8AJ	.	8fJ	.	8ddJ	.	.	.	.	.	.	.	.	.	.	.	.	.	.	.	.	.	.	.	.	.	.
8dL	.	.	.	8dL	.	8aL	.	8ffL	.	8FL	.	.	.	.	.	.	.	.	.	.	.	.	.	.	.	.	.	.	.	.
8AJ	.	.	.	8fJ	.	8ddJ	.	8aaJ	.	8GJ)	.	.	8g)	8e)	.	.	.	.	.	.	.	.	.	.	.	.	8g	.	8ee	.
8FL	.	.	.	8dL	.	8aL	.	8ffL	.	8AL	4D	.	4f	4d	-na	.	.	.	.	.	.	.	.	.	.	.	4f	.	4dd	.
8DJ	.	.	.	8B-J	.	8fJ	.	8ddJ	.	8B-J	.	.	.	.	.	.	.	.	.	.	.	.	.	.	.	.	.	.	.	.
=34	=34	=34	=34	=34	=34	=34	=34	=34	=34	=34	=34	=34	=34	=34	=34	=34	=34	=34	=34	=34	=34	=34	=34	=34	=34	=34	=34	=34	=34	=34
8CL	.	[2.C	.	[2.c	.	2g	.	4.cc	.	[2.c	[2.C	.	[2.g	(2.f	.	.	2.r	.	.	2.r	2.r	.	2.r	.	2.r	.	[2.g	.	4.ff	.
8GJ	.	.	.	.	.	.	.	.	.	.	.	.	.	.	.	.	.	.	.	.	.	.	.	.	.	.	.	.	.	.
4c	.	.	.	.	.	.	.	.	.	.	.	.	.	.	.	.	.	.	.	.	.	.	.	.	.	.	.	.	.	.
.	.	.	.	.	.	.	.	8b-	.	.	.	.	.	.	.	.	.	.	.	.	.	.	.	.	.	.	.	.	16eeLL	.
.	.	.	.	.	.	.	.	.	.	.	.	.	.	.	.	.	.	.	.	.	.	.	.	.	.	.	.	.	16ddJJ	.
4G	.	.	.	.	.	8fL	.	8aL	.	.	.	.	.	.	.	.	.	.	.	.	.	.	.	.	.	.	.	.	8ccL	.
.	.	.	.	.	.	8dJ	.	8fJ	.	.	.	.	.	.	.	.	.	.	.	.	.	.	.	.	.	.	.	.	8ddJ	.
=35	=35	=35	=35	=35	=35	=35	=35	=35	=35	=35	=35	=35	=35	=35	=35	=35	=35	=35	=35	=35	=35	=35	=35	=35	=35	=35	=35	=35	=35	=35
4C	.	2C]	.	2c]	.	2e	.	2g	.	2c]	2C]	.	2g]	2e)	.	.	2.r	.	.	2.r	2.r	.	2.r	.	2.r	.	2g]	.	2ee	.
4r	.	.	.	.	.	.	.	.	.	.	.	.	.	.	.	.	.	.	.	.	.	.	.	.	.	.	.	.	.	.
4r	.	4r	.	4r	.	4r	.	4r	.	8AL	8DL	mp mp	8dL	8dL	Jak-	mp mp	.	.	.	.	.	.	.	.	.	.	4r	.	4r	.
.	.	.	.	.	.	.	.	.	.	8AJ	8AAJ	.	8eJ	8c#XJ	-że	.	.	.	.	.	.	.	.	.	.	.	.	.	.	.
=36	=36	=36	=36	=36	=36	=36	=36	=36	=36	=36	=36	=36	=36	=36	=36	=36	=36	=36	=36	=36	=36	=36	=36	=36	=36	=36	=36	=36	=36	=36
!	!	!LO:TX:a:t=pizz.	!	!	!	!	!	!	!	!	!	!	!	!	!	!	!	!	!	!	!	!	!	!	!	!	!	!	!	!
2.r	.	8DDL	mp	4r	.	4r	.	4r	.	(4.A	[2D	.	(4.f	[2d	pięk-	.	4r	.	.	2.r	2.r	.	2.r	.	2.r	.	2.r	.	2.r	.
.	.	8AAJ	.	.	.	.	.	.	.	.	.	.	.	.	.	.	.	.	.	.	.	.	.	.	.	.	.	.	.	.
!	!	!	!	!LO:TX:a:t=pizz.	!	!LO:TX:a:t=pizz.	!	!LO:TX:a:t=pizz.	!	!	!	!	!	!	!	!	!	!	!	!	!	!	!	!	!	!	!	!	!	!
.	.	4D	.	4F	mp	4a	mp	4dd	mp	.	.	.	.	.	.	.	8AL	Po-	.	.	.	.	.	.	.	.	.	.	.	.
.	.	.	.	.	.	.	.	.	.	8GL)	.	.	8eL)	.	.	.	8GJ	-wróć,	.	.	.	.	.	.	.	.	.	.	.	.
.	.	4r	.	4F	.	4a	.	4dd	.	8AJ	8DL]	.	8fJ	8dL]	.	.	8AL	przy-	.	.	.	.	.	.	.	.	.	.	.	.
.	.	.	.	.	.	.	.	.	.	8F	8DJ	.	8d	8dJ	-na	.	8B-J	-ja-	.	.	.	.	.	.	.	.	.	.	.	.
=37	=37	=37	=37	=37	=37	=37	=37	=37	=37	=37	=37	=37	=37	=37	=37	=37	=37	=37	=37	=37	=37	=37	=37	=37	=37	=37	=37	=37	=37	=37
2.r	.	8AAL	.	4r	.	4r	.	4r	.	8AL	4AA	.	4e	4d	jes-	.	8.AL	-ciół-	.	2.r	2.r	.	2.r	.	2.r	.	2.r	.	2.r	.
.	.	8EJ	.	.	.	.	.	.	.	16GL	.	.	.	.	.	.	.	.	.	.	.	.	.	.	.	.	.	.	.	.
.	.	.	.	.	.	.	.	.	.	16FJJ	.	.	.	.	.	.	16GJk	-ko	.	.	.	.	.	.	.	.	.	.	.	.
.	.	4A	.	4A	.	4cc#X	.	4ee	.	4E	4AA	.	4a	4c#X	-teś	.	4.A	ma,	.	.	.	.	.	.	.	.	.	.	.	.
.	.	4r	.	4A	.	4a	.	8ddL	.	4A	4AA	.	(8dL	(8dL	i	.	.	.	.	.	.	.	.	.	.	.	.	.	.	.
.	.	.	.	.	.	.	.	8cc#XJ	.	.	.	.	8eJ)	8c#J)	.	.	8r	.	.	.	.	.	.	.	.	.	.	.	.	.
=38	=38	=38	=38	=38	=38	=38	=38	=38	=38	=38	=38	=38	=38	=38	=38	=38	=38	=38	=38	=38	=38	=38	=38	=38	=38	=38	=38	=38	=38	=38
2.r	.	8DDL	.	4r	.	4r	.	4r	.	(4.A	[2D	.	(4.f	[2d	peł-	.	4r	.	.	2.r	2.r	.	2.r	.	2.r	.	2.r	.	2.r	.
.	.	8AAJ	.	.	.	.	.	.	.	.	.	.	.	.	.	.	.	.	.	.	.	.	.	.	.	.	.	.	.	.
.	.	4D	.	4F	.	4a	.	4dd	.	.	.	.	.	.	.	.	(8AL	peł-	.	.	.	.	.	.	.	.	.	.	.	.
.	.	.	.	.	.	.	.	.	.	8GL)	.	.	8eL)	.	.	.	8GJ)	.	.	.	.	.	.	.	.	.	.	.	.	.
.	.	4r	.	4F	.	4a	.	4dd	.	8AJ	8DL]	.	8fJ	8dL]	.	.	8AL	-na	.	.	.	.	.	.	.	.	.	.	.	.
.	.	.	.	.	.	.	.	.	.	8F	8DJ	.	8d	8dJ	-na	.	8B-J	roz-	.	.	.	.	.	.	.	.	.	.	.	.
=39	=39	=39	=39	=39	=39	=39	=39	=39	=39	=39	=39	=39	=39	=39	=39	=39	=39	=39	=39	=39	=39	=39	=39	=39	=39	=39	=39	=39	=39	=39
2.r	.	8AAL	.	4r	.	4r	.	4r	.	8AL	4AA	.	4e	4d	wdzię-	.	4A	-ko-	.	2.r	2.r	.	2.r	.	2r	.	2.r	.	2.r	.
.	.	8EJ	.	.	.	.	.	.	.	16GL	.	.	.	.	.	.	.	.	.	.	.	.	.	.	.	.	.	.	.	.
.	.	.	.	.	.	.	.	.	.	16FJJ	.	.	.	.	.	.	.	.	.	.	.	.	.	.	.	.	.	.	.	.
.	.	4A	.	4A	.	4cc#X	.	4ee	.	4E	4AA	.	4a	4c#X	-ku,	.	4c#X	-szy!	.	.	.	.	.	.	.	.	.	.	.	.
.	.	4r	.	4A	.	4a	.	4cc#X	.	4A	4AA	.	4e	4c#	U-	.	8r	.	.	.	.	.	.	.	8r	.	.	.	.	.
.	.	.	.	.	.	.	.	.	.	.	.	.	.	.	.	.	8A	Na-	.	.	.	.	.	.	8a	mf	.	.	.	.
=40	=40	=40	=40	=40	=40	=40	=40	=40	=40	=40	=40	=40	=40	=40	=40	=40	=40	=40	=40	=40	=40	=40	=40	=40	=40	=40	=40	=40	=40	=40
2.r	.	8GGL	.	4B-	.	4f	.	4dd	.	2B-	2GG	.	2f	2d	-mi-	.	4B-	-syć-	.	2.r	2.r	.	2.r	.	4b-	.	2.r	.	2.r	.
.	.	8DJ	.	.	.	.	.	.	.	.	.	.	.	.	.	.	.	.	.	.	.	.	.	.	.	.	.	.	.	.
.	.	4G	.	4r	.	4r	.	4r	.	.	.	.	.	.	.	.	4A	-my	.	.	.	.	.	.	4a	.	.	.	.	.
.	.	8r	.	4G	.	4e	.	4cc	.	4G	4GG	.	4e	4c	-ło-	.	4B-	się	.	.	.	.	.	.	4b-	.	.	.	.	.
.	.	8AA	.	.	.	.	.	.	.	.	.	.	.	.	.	.	.	.	.	.	.	.	.	.	.	.	.	.	.	.
=41	=41	=41	=41	=41	=41	=41	=41	=41	=41	=41	=41	=41	=41	=41	=41	=41	=41	=41	=41	=41	=41	=41	=41	=41	=41	=41	=41	=41	=41	=41
2.r	.	8BB-L	.	4B-	.	4f	.	4dd	.	2F	2BB-	.	2d	2B-	-wa-	.	4d	two-	.	2.r	2.r	.	2.r	.	4dd	.	2.r	.	2.r	.
.	.	8FJ	.	.	.	.	.	.	.	.	.	.	.	.	.	.	.	.	.	.	.	.	.	.	.	.	.	.	.	.
.	.	8DL	.	4r	.	4r	.	4r	.	.	.	.	.	.	.	.	4c#X	-im	.	.	.	.	.	.	4cc#X	.	.	.	.	.
.	.	8BB-J	.	.	.	.	.	.	.	.	.	.	.	.	.	.	.	.	.	.	.	.	.	.	.	.	.	.	.	.
.	.	8FFL	.	4B-	.	4f	.	8cc#XL	.	4F	4BB-	.	(8c#XL	4B-	-na	.	4B-	wi-	.	.	.	.	.	.	4b-	.	.	.	.	.
.	.	8BB-J	.	.	.	.	.	8ddJ	.	.	.	.	8dJ)	.	.	.	.	.	.	.	.	.	.	.	.	.	.	.	.	.
=42	=42	=42	=42	=42	=42	=42	=42	=42	=42	=42	=42	=42	=42	=42	=42	=42	=42	=42	=42	=42	=42	=42	=42	=42	=42	=42	=42	=42	=42	=42
2.r	.	8AAL	.	4A	.	4a	.	4ee	.	[2.A	[2.AA	.	[2.e	(4A	ma.	.	(8AL	-do-	.	2.r	2.r	.	2.r	.	8a'L	.	2.r	.	2.r	.
.	.	8EJ	.	.	.	.	.	.	.	.	.	.	.	.	.	.	8GJ)	.	.	.	.	.	.	.	16gL	.	.	.	.	.
.	.	.	.	.	.	.	.	.	.	.	.	.	.	.	.	.	.	.	.	.	.	.	.	.	16fJJ	.	.	.	.	.
.	.	4A	.	4r	.	4r	.	4r	.	.	.	.	.	2d	.	.	2A	-kiem.	.	.	.	.	.	.	16eLL	.	.	.	.	.
.	.	.	.	.	.	.	.	.	.	.	.	.	.	.	.	.	.	.	.	.	.	.	.	.	16f	.	.	.	.	.
.	.	.	.	.	.	.	.	.	.	.	.	.	.	.	.	.	.	.	.	.	.	.	.	.	16e	.	.	.	.	.
.	.	.	.	.	.	.	.	.	.	.	.	.	.	.	.	.	.	.	.	.	.	.	.	.	16dJJ	.	.	.	.	.
.	.	4E	.	4d	.	4a	.	4ee	.	.	.	.	.	.	.	.	.	.	.	.	.	.	.	.	16c#XLL	.	.	.	.	.
.	.	.	.	.	.	.	.	.	.	.	.	.	.	.	.	.	.	.	.	.	.	.	.	.	16d	.	.	.	.	.
.	.	.	.	.	.	.	.	.	.	.	.	.	.	.	.	.	.	.	.	.	.	.	.	.	16e	.	.	.	.	.
.	.	.	.	.	.	.	.	.	.	.	.	.	.	.	.	.	.	.	.	.	.	.	.	.	16fJJ	.	.	.	.	.
=43	=43	=43	=43	=43	=43	=43	=43	=43	=43	=43	=43	=43	=43	=43	=43	=43	=43	=43	=43	=43	=43	=43	=43	=43	=43	=43	=43	=43	=43	=43
2.r	.	4AA	.	4c#X	.	4e	.	4a	.	2A]	2AA]	.	2e]	2c#X)	.	.	2.r	.	.	2.r	2.r	.	2.r	.	2e	.	2.r	.	2.r	.
.	.	4r	.	4r	.	4r	.	4r	.	.	.	.	.	.	.	.	.	.	.	.	.	.	.	.	.	.	.	.	.	.
!	!	!LO:TX:a:t=arco	!	!LO:TX:a:t=arco	!	!LO:TX:a:t=arco	!	!LO:TX:a:t=arco	!	!	!	!	!	!	!	!	!	!	!	!	!	!	!	!	!	!	!	!	!	!
.	.	8DL	.	8AL	.	8dL	.	8fL	.	8AL	8DL	.	8fL	8dL	Jak-	.	.	.	.	.	.	.	.	.	4r	.	.	.	.	.
.	.	8CJ	.	8cnJ	.	8eJ	.	8gJ	.	8cJ	8CJ	.	8gJ	8eJ	-że	.	.	.	.	.	.	.	.	.	.	.	.	.	.	.
=44	=44	=44	=44	=44	=44	=44	=44	=44	=44	=44	=44	=44	=44	=44	=44	=44	=44	=44	=44	=44	=44	=44	=44	=44	=44	=44	=44	=44	=44	=44
2.r	.	2.F	.	2.c	.	2.f	.	2.a	.	(4.c	[2F	.	(4.a	[2f	pięk-	.	4r	.	.	2.r	2.r	.	2.r	.	2.r	.	2.r	.	4r	.
.	.	.	.	.	.	.	.	.	.	.	.	.	.	.	.	.	8cL	Po-	f	.	.	.	.	.	.	.	.	.	8ccL	.
.	.	.	.	.	.	.	.	.	.	8B-L	.	.	8gL	.	.	.	8AJ	-bieg-	.	.	.	.	.	.	.	.	.	.	8aJ	.
.	.	.	.	.	.	.	.	.	.	8cJ)	8FL]	.	8aJ)	8fL]	.	.	8cL	-nij-	.	.	.	.	.	.	.	.	.	.	8ccL	.
.	.	.	.	.	.	.	.	.	.	8A	8FJ	.	8f	8fJ	-na	.	8dJ	-my	.	.	.	.	.	.	.	.	.	.	8ddJ	.
=45	=45	=45	=45	=45	=45	=45	=45	=45	=45	=45	=45	=45	=45	=45	=45	=45	=45	=45	=45	=45	=45	=45	=45	=45	=45	=45	=45	=45	=45	=45
2.r	.	2.C	.	2c	.	4f	.	2g	.	8cL	4C	.	4g	4f	jes-	.	4c	ra-	.	2.r	2.r	.	2.r	.	2.r	.	2.r	.	4cc	.
.	.	.	.	.	.	.	.	.	.	16B-L	.	.	.	.	.	.	.	.	.	.	.	.	.	.	.	.	.	.	.	.
.	.	.	.	.	.	.	.	.	.	16AJJ	.	.	.	.	.	.	.	.	.	.	.	.	.	.	.	.	.	.	.	.
.	.	.	.	.	.	4e	.	.	.	4G	4C	.	4cc	4e	-teś	.	4c	-zem,	.	.	.	.	.	.	.	.	.	.	8ggL	.
.	.	.	.	.	.	.	.	.	.	.	.	.	.	.	.	.	.	.	.	.	.	.	.	.	.	.	.	.	8aaJ	.
.	.	.	.	8AL	.	8dL	.	8fL	.	(8AL	4C	.	(8fL	(8dL	i	.	4r	.	.	.	.	.	.	.	.	.	.	.	16ggLL	.
.	.	.	.	.	.	.	.	.	.	.	.	.	.	.	.	.	.	.	.	.	.	.	.	.	.	.	.	.	16ff	.
.	.	.	.	8cJ	.	8eJ	.	8gJ	.	8cJ)	.	.	8gJ)	8eJ)	.	.	.	.	.	.	.	.	.	.	.	.	.	.	16ee	.
.	.	.	.	.	.	.	.	.	.	.	.	.	.	.	.	.	.	.	.	.	.	.	.	.	.	.	.	.	16ggJJ	.
=46	=46	=46	=46	=46	=46	=46	=46	=46	=46	=46	=46	=46	=46	=46	=46	=46	=46	=46	=46	=46	=46	=46	=46	=46	=46	=46	=46	=46	=46	=46
2.r	.	2.F	.	2.c	.	2.f	.	2.a	.	(4.c	[2F	.	(4.a	[2f	peł-	.	4r	.	.	2.r	2.r	.	2.r	.	2.r	.	2.r	.	8aaL	.
.	.	.	.	.	.	.	.	.	.	.	.	.	.	.	.	.	.	.	.	.	.	.	.	.	.	.	.	.	8ggJ	.
.	.	.	.	.	.	.	.	.	.	.	.	.	.	.	.	.	4c	po-	.	.	.	.	.	.	.	.	.	.	8.ffL	.
.	.	.	.	.	.	.	.	.	.	8B-L	.	.	8gL	.	.	.	.	.	.	.	.	.	.	.	.	.	.	.	.	.
.	.	.	.	.	.	.	.	.	.	.	.	.	.	.	.	.	.	.	.	.	.	.	.	.	.	.	.	.	16eeJk	.
.	.	.	.	.	.	.	.	.	.	8cJ)	8FL]	.	8aJ)	8fL]	.	.	12AL	-śpiesz-	.	.	.	.	.	.	.	.	.	.	8ffL	.
.	.	.	.	.	.	.	.	.	.	.	.	.	.	.	.	.	12c	-my	.	.	.	.	.	.	.	.	.	.	.	.
.	.	.	.	.	.	.	.	.	.	8A	8FJ	.	8f	8fJ	-na	.	.	.	.	.	.	.	.	.	.	.	.	.	8ccJ	.
.	.	.	.	.	.	.	.	.	.	.	.	.	.	.	.	.	12dJ	do	.	.	.	.	.	.	.	.	.	.	.	.
=47	=47	=47	=47	=47	=47	=47	=47	=47	=47	=47	=47	=47	=47	=47	=47	=47	=47	=47	=47	=47	=47	=47	=47	=47	=47	=47	=47	=47	=47	=47
2.r	.	2C	.	2c	.	4f	.	2g	.	8cL	4C	.	4g	4f	wdzię-	.	(8cL	win-	.	2.r	2.r	.	2r	.	2.r	.	2.r	.	2gg	.
.	.	.	.	.	.	.	.	.	.	16B-L	.	.	.	.	.	.	8GJ)	.	.	.	.	.	.	.	.	.	.	.	.	.
.	.	.	.	.	.	.	.	.	.	16AJJ	.	.	.	.	.	.	.	.	.	.	.	.	.	.	.	.	.	.	.	.
.	.	.	.	.	.	4e	.	.	.	4G	4C	.	4cc	4e	-ku,	.	4G	-nic!	.	.	.	.	.	.	.	.	.	.	.	.
.	.	4AA	.	(16ALL	.	4r	.	(16fLL	.	4c	4AA	.	4cc	4f	U-	.	4r	.	.	.	.	.	8CL	mf	.	.	.	.	4r	.
.	.	.	.	16B-	.	.	.	16g	.	.	.	.	.	.	.	.	.	.	.	.	.	.	.	.	.	.	.	.	.	.
.	.	.	.	16c	.	.	.	16a	.	.	.	.	.	.	.	.	.	.	.	.	.	.	8AAJ	.	.	.	.	.	.	.
.	.	.	.	16dJJ)	.	.	.	16b-JJ)	.	.	.	.	.	.	.	.	.	.	.	.	.	.	.	.	.	.	.	.	.	.
=48	=48	=48	=48	=48	=48	=48	=48	=48	=48	=48	=48	=48	=48	=48	=48	=48	=48	=48	=48	=48	=48	=48	=48	=48	=48	=48	=48	=48	=48	=48
2.r	.	2BB-	.	2.d	.	2.f	.	2cc	.	2d	2BB-	.	2cc	2f	-mi-	.	4.d	Ciesz-	.	2.r	2.r	.	8BB-L	.	2.r	.	2.r	.	2.r	.
.	.	.	.	.	.	.	.	.	.	.	.	.	.	.	.	.	.	.	.	.	.	.	8B-J	.	.	.	.	.	.	.
.	.	.	.	.	.	.	.	.	.	.	.	.	.	.	.	.	.	.	.	.	.	.	8FL	.	.	.	.	.	.	.
.	.	.	.	.	.	.	.	.	.	.	.	.	.	.	.	.	8c	-my	.	.	.	.	8DJ	.	.	.	.	.	.	.
.	.	8BB-L	.	.	.	.	.	4b-	.	4d	8BB-L	.	4b-	4f	-ło-	.	4d	się	.	.	.	.	8BB-L	.	.	.	.	.	.	.
.	.	8CJ	.	.	.	.	.	.	.	.	8CJ	.	.	.	.	.	.	.	.	.	.	.	8FFJ	.	.	.	.	.	.	.
=49	=49	=49	=49	=49	=49	=49	=49	=49	=49	=49	=49	=49	=49	=49	=49	=49	=49	=49	=49	=49	=49	=49	=49	=49	=49	=49	=49	=49	=49	=49
2.r	.	2.D	.	8FL	.	8dL	.	8aL	.	(4d	2D	.	(4.a	(4.f	-wa-	.	8fL	i	.	2.r	2.r	.	4DD	.	2.r	.	2.r	.	2.r	.
.	.	.	.	8AJ	.	8fJ	.	8ddJ	.	.	.	.	.	.	.	.	8eJ	we-	.	.	.	.	.	.	.	.	.	.	.	.
.	.	.	.	8dL	.	8aL	.	8ffL	.	8FL	.	.	.	.	.	.	4d	-sel-	.	.	.	.	4AA	.	.	.	.	.	.	.
.	.	.	.	8fJ	.	8ddJ	.	8aaJ	.	8GJ)	.	.	8g)	8e)	.	.	.	.	.	.	.	.	.	.	.	.	.	.	.	.
.	.	.	.	8dL	.	8aL	.	8ffL	.	8AL	4D	.	4f	4d	-na	.	4A	-my	.	.	.	.	4D	.	.	.	.	.	.	.
.	.	.	.	8B-J	.	8fJ	.	8ddJ	.	8B-J	.	.	.	.	.	.	.	.	.	.	.	.	.	.	.	.	.	.	.	.
=50	=50	=50	=50	=50	=50	=50	=50	=50	=50	=50	=50	=50	=50	=50	=50	=50	=50	=50	=50	=50	=50	=50	=50	=50	=50	=50	=50	=50	=50	=50
2.r	.	[2.C	.	[2.c	.	2g	.	4.cc	.	[2.c	[2.C	.	[2.g	(2.f	.	.	4d	to-	.	2.r	2.r	.	8CL	.	2.r	.	2.r	.	2.r	.
.	.	.	.	.	.	.	.	.	.	.	.	.	.	.	.	.	.	.	.	.	.	.	8GJ	.	.	.	.	.	.	.
.	.	.	.	.	.	.	.	.	.	.	.	.	.	.	.	.	[2c	-bą!	.	.	.	.	4c	.	.	.	.	.	.	.
.	.	.	.	.	.	.	.	8b-	.	.	.	.	.	.	.	.	.	.	.	.	.	.	.	.	.	.	.	.	.	.
.	.	.	.	.	.	8fL	.	8aL	.	.	.	.	.	.	.	.	.	.	.	.	.	.	4G	.	.	.	.	.	.	.
.	.	.	.	.	.	8dJ	.	8fJ	.	.	.	.	.	.	.	.	.	.	.	.	.	.	.	.	.	.	.	.	.	.
=51	=51	=51	=51	=51	=51	=51	=51	=51	=51	=51	=51	=51	=51	=51	=51	=51	=51	=51	=51	=51	=51	=51	=51	=51	=51	=51	=51	=51	=51	=51
2.r	.	2C]	.	2c]	.	2e	.	2g	.	2c]	2C]	.	2g]	2e)	.	.	2c]	.	.	2.r	2.r	.	2C	.	2.r	.	2.r	.	2.r	.
.	.	4r	.	4r	.	4r	.	4r	.	8AL	8DL	.	8dL	8dL	Jak-	.	4r	.	.	.	.	.	4r	.	.	.	.	.	.	.
.	.	.	.	.	.	.	.	.	.	8AJ	8AAJ	.	8eJ	8c#XJ	-że	.	.	.	.	.	.	.	.	.	.	.	.	.	.	.
=52	=52	=52	=52	=52	=52	=52	=52	=52	=52	=52	=52	=52	=52	=52	=52	=52	=52	=52	=52	=52	=52	=52	=52	=52	=52	=52	=52	=52	=52	=52
!	!	!LO:TX:a:t=pizz.	!	!	!	!	!	!	!	!	!	!	!	!	!	!	!	!	!	!	!	!	!	!	!	!	!	!	!	!
2.r	.	8DDL	.	4r	.	4r	.	4r	.	(4.A	[2D	.	(4.f	[2d	pięk-	.	2r	.	.	2.r	2.r	.	2.r	.	2.r	.	2.r	.	2.r	.
.	.	8AAJ	.	.	.	.	.	.	.	.	.	.	.	.	.	.	.	.	.	.	.	.	.	.	.	.	.	.	.	.
!	!	!	!	!LO:TX:a:t=pizz.	!	!LO:TX:a:t=pizz.	!	!LO:TX:a:t=pizz.	!	!	!	!	!	!	!	!	!	!	!	!	!	!	!	!	!	!	!	!	!	!
.	.	4D	.	4F	.	4a	.	4dd	.	.	.	.	.	.	.	.	.	.	.	.	.	.	.	.	.	.	.	.	.	.
.	.	.	.	.	.	.	.	.	.	8GL)	.	.	8eL)	.	.	.	.	.	.	.	.	.	.	.	.	.	.	.	.	.
.	.	4r	.	4F	.	4a	.	4dd	.	8AJ	8DL]	.	8fJ	8dL]	.	.	8AL	U-	mf	.	.	.	.	.	.	.	.	.	.	.
.	.	.	.	.	.	.	.	.	.	8F	8DJ	.	8d	8dJ	-na	.	8B-J	-sta	.	.	.	.	.	.	.	.	.	.	.	.
=53	=53	=53	=53	=53	=53	=53	=53	=53	=53	=53	=53	=53	=53	=53	=53	=53	=53	=53	=53	=53	=53	=53	=53	=53	=53	=53	=53	=53	=53	=53
2.r	.	8AAL	.	4r	.	4r	.	4r	.	8AL	4AA	.	4e	4d	jes-	.	4A	twe	.	2.r	2.r	.	2.r	.	2.r	.	2.r	.	2.r	.
.	.	8EJ	.	.	.	.	.	.	.	16GL	.	.	.	.	.	.	.	.	.	.	.	.	.	.	.	.	.	.	.	.
.	.	.	.	.	.	.	.	.	.	16FJJ	.	.	.	.	.	.	.	.	.	.	.	.	.	.	.	.	.	.	.	.
.	.	4A	.	4A	.	4cc#X	.	4ee	.	4E	4AA	.	4a	4c#X	-teś	.	8AL	jak	.	.	.	.	.	.	.	.	.	.	.	.
.	.	.	.	.	.	.	.	.	.	.	.	.	.	.	.	.	8GJ	wy-	.	.	.	.	.	.	.	.	.	.	.	.
.	.	4r	.	4A	.	4a	.	8ddL	.	4A	4AA	.	(8dL	(8dL	i	.	8FL	-bor-	.	.	.	.	.	.	.	.	.	.	.	.
.	.	.	.	.	.	.	.	8cc#XJ	.	.	.	.	8eJ)	8c#J)	.	.	8GJ	-ne	.	.	.	.	.	.	.	.	.	.	.	.
=54	=54	=54	=54	=54	=54	=54	=54	=54	=54	=54	=54	=54	=54	=54	=54	=54	=54	=54	=54	=54	=54	=54	=54	=54	=54	=54	=54	=54	=54	=54
2.r	.	8DDL	.	4r	.	4r	.	4r	.	(4.A	[2D	.	(4.f	[2d	peł-	.	4A	wi-	.	2.r	2.r	.	2.r	.	8aL	.	2.r	.	2.r	.
.	.	8AAJ	.	.	.	.	.	.	.	.	.	.	.	.	.	.	.	.	.	.	.	.	.	.	8gJ	.	.	.	.	.
.	.	4D	.	4F	.	4a	.	4dd	.	.	.	.	.	.	.	.	2A	-no,	.	.	.	.	.	.	16fLL	.	.	.	.	.
.	.	.	.	.	.	.	.	.	.	.	.	.	.	.	.	.	.	.	.	.	.	.	.	.	16g	.	.	.	.	.
.	.	.	.	.	.	.	.	.	.	8GL)	.	.	8eL)	.	.	.	.	.	.	.	.	.	.	.	16f	.	.	.	.	.
.	.	.	.	.	.	.	.	.	.	.	.	.	.	.	.	.	.	.	.	.	.	.	.	.	16eJJ	.	.	.	.	.
.	.	4r	.	4F	.	4a	.	4dd	.	8AJ	8DL]	.	8fJ	8dL]	.	.	.	.	.	.	.	.	.	.	16dLL	.	.	.	.	.
.	.	.	.	.	.	.	.	.	.	.	.	.	.	.	.	.	.	.	.	.	.	.	.	.	16e	.	.	.	.	.
.	.	.	.	.	.	.	.	.	.	8F	8DJ	.	8d	8dJ	-na	.	.	.	.	.	.	.	.	.	16f	.	.	.	.	.
.	.	.	.	.	.	.	.	.	.	.	.	.	.	.	.	.	.	.	.	.	.	.	.	.	16gJJ	.	.	.	.	.
=55	=55	=55	=55	=55	=55	=55	=55	=55	=55	=55	=55	=55	=55	=55	=55	=55	=55	=55	=55	=55	=55	=55	=55	=55	=55	=55	=55	=55	=55	=55
2.r	.	8AAL	.	4r	.	4r	.	4r	.	8AL	4AA	.	4e	4d	wdzię-	.	2.r	.	.	2.r	2.r	.	2.r	.	8aL	.	2.r	.	2.r	.
.	.	8EJ	.	.	.	.	.	.	.	16GL	.	.	.	.	.	.	.	.	.	.	.	.	.	.	8b-J	.	.	.	.	.
.	.	.	.	.	.	.	.	.	.	16FJJ	.	.	.	.	.	.	.	.	.	.	.	.	.	.	.	.	.	.	.	.
.	.	4A	.	4A	.	4cc#X	.	4ee	.	4E	4AA	.	4a	4c#X	-ku,	.	.	.	.	.	.	.	.	.	2a	.	.	.	.	.
.	.	4r	.	4A	.	4a	.	4cc#X	.	4A	4AA	.	4e	4c#	U-	.	.	.	.	.	.	.	.	.	.	.	.	.	.	.
=56	=56	=56	=56	=56	=56	=56	=56	=56	=56	=56	=56	=56	=56	=56	=56	=56	=56	=56	=56	=56	=56	=56	=56	=56	=56	=56	=56	=56	=56	=56
2.r	.	8GGL	.	4B-	.	4f	.	4dd	.	2B-	2GG	.	2f	2d	-mi-	.	8B-L	po-	.	2.r	2.r	.	2.r	.	2.r	.	2.r	.	2.r	.
.	.	8DJ	.	.	.	.	.	.	.	.	.	.	.	.	.	.	8AJ	-stać	.	.	.	.	.	.	.	.	.	.	.	.
.	.	4G	.	4r	.	4r	.	4r	.	.	.	.	.	.	.	.	4B-	twa	.	.	.	.	.	.	.	.	.	.	.	.
.	.	8r	.	4G	.	4e	.	4cc	.	4G	4GG	.	4e	4c	-ło-	.	(8dL	wy-	.	.	.	.	.	.	.	.	.	.	.	.
.	.	8AA	.	.	.	.	.	.	.	.	.	.	.	.	.	.	8eJ)	.	.	.	.	.	.	.	.	.	.	.	.	.
=57	=57	=57	=57	=57	=57	=57	=57	=57	=57	=57	=57	=57	=57	=57	=57	=57	=57	=57	=57	=57	=57	=57	=57	=57	=57	=57	=57	=57	=57	=57
2.r	.	8BB-L	.	4B-	.	4f	.	4dd	.	2F	2BB-	.	2d	2B-	-wa-	.	(8fL	-smu-	.	2.r	2.r	.	2.r	.	2.r	.	2.r	.	2.r	.
.	.	8FJ	.	.	.	.	.	.	.	.	.	.	.	.	.	.	8eJ)	.	.	.	.	.	.	.	.	.	.	.	.	.
.	.	8DL	.	4r	.	4r	.	4r	.	.	.	.	.	.	.	.	4d	-kła	.	.	.	.	.	.	.	.	.	.	.	.
.	.	8BB-J	.	.	.	.	.	.	.	.	.	.	.	.	.	.	.	.	.	.	.	.	.	.	.	.	.	.	.	.
.	.	8FFL	.	4B-	.	4f	.	8cc#XL	.	4F	4BB-	.	(8c#XL	4B-	-na	.	4e	jak	.	.	.	.	.	.	.	.	.	.	.	.
.	.	8BB-J	.	.	.	.	.	8ddJ	.	.	.	.	8dJ)	.	.	.	.	.	.	.	.	.	.	.	.	.	.	.	.	.
=58	=58	=58	=58	=58	=58	=58	=58	=58	=58	=58	=58	=58	=58	=58	=58	=58	=58	=58	=58	=58	=58	=58	=58	=58	=58	=58	=58	=58	=58	=58
2.r	.	8AAL	.	4A	.	4a	.	4ee	.	[2.A	[2.AA	.	[2.e	(4A	ma.	.	(8c#XL	pal-	.	2.r	2.r	.	2.r	.	2.r	.	2.r	.	8aL	.
.	.	8EJ	.	.	.	.	.	.	.	.	.	.	.	.	.	.	8B-J)	.	.	.	.	.	.	.	.	.	.	.	8b-J	.
.	.	4A	.	4r	.	4r	.	4r	.	.	.	.	.	2d	.	.	2A	-ma,	.	.	.	.	.	.	.	.	.	.	16cc#XLL	.
.	.	.	.	.	.	.	.	.	.	.	.	.	.	.	.	.	.	.	.	.	.	.	.	.	.	.	.	.	16dd	.
.	.	.	.	.	.	.	.	.	.	.	.	.	.	.	.	.	.	.	.	.	.	.	.	.	.	.	.	.	16ee	.
.	.	.	.	.	.	.	.	.	.	.	.	.	.	.	.	.	.	.	.	.	.	.	.	.	.	.	.	.	16ffJJ	.
.	.	4E	.	4d	.	4a	.	4ee	.	.	.	.	.	.	.	.	.	.	.	.	.	.	.	.	.	.	.	.	8eeL	.
.	.	.	.	.	.	.	.	.	.	.	.	.	.	.	.	.	.	.	.	.	.	.	.	.	.	.	.	.	8ffJ	.
=59	=59	=59	=59	=59	=59	=59	=59	=59	=59	=59	=59	=59	=59	=59	=59	=59	=59	=59	=59	=59	=59	=59	=59	=59	=59	=59	=59	=59	=59	=59
2.r	.	4AA	.	4c#X	.	4e	.	4a	.	2A]	2AA]	.	2e]	2c#X)	.	.	2r	.	.	2.r	2.r	.	2.r	.	2.r	.	2.r	.	4gg	.
.	.	4r	.	4r	.	4r	.	4r	.	.	.	.	.	.	.	.	.	.	.	.	.	.	.	.	.	.	.	.	4aa	.
!	!	!LO:TX:a:t=arco	!	!LO:TX:a:t=arco	!	!LO:TX:a:t=arco	!	!LO:TX:a:t=arco	!	!	!	!	!	!	!	!	!	!	!	!	!	!	!	!	!	!	!	!	!	!
.	.	8DL	.	8AL	.	8dL	.	8fL	.	8AL	8DL	.	8fL	8dL	Jak-	.	4r	.	.	.	.	.	.	.	.	.	.	.	4r	.
.	.	8CJ	.	8cnJ	.	8eJ	.	8gJ	.	8cJ	8CJ	.	8gJ	8eJ	-że	.	.	.	.	.	.	.	.	.	.	.	.	.	.	.
=60	=60	=60	=60	=60	=60	=60	=60	=60	=60	=60	=60	=60	=60	=60	=60	=60	=60	=60	=60	=60	=60	=60	=60	=60	=60	=60	=60	=60	=60	=60
2.r	.	2.F	.	2.c	.	2.f	.	2.a	.	(4.c	[2F	.	(4.a	[2f	pięk-	.	8cL	wło-	f	2.r	2.r	.	2.r	.	2.r	.	8ccL	.	2.r	.
.	.	.	.	.	.	.	.	.	.	.	.	.	.	.	.	.	8B-J	-sy	.	.	.	.	.	.	.	.	8b-J	.	.	.
.	.	.	.	.	.	.	.	.	.	.	.	.	.	.	.	.	4A	twe	.	.	.	.	.	.	.	.	4a	.	.	.
.	.	.	.	.	.	.	.	.	.	8B-L	.	.	8gL	.	.	.	.	.	.	.	.	.	.	.	.	.	.	.	.	.
.	.	.	.	.	.	.	.	.	.	8cJ)	8FL]	.	8aJ)	8fL]	.	.	8GL	jak	.	.	.	.	.	.	.	.	8gL	.	.	.
.	.	.	.	.	.	.	.	.	.	8A	8FJ	.	8f	8fJ	-na	.	8FJ	król-	.	.	.	.	.	.	.	.	8fJ	.	.	.
=61	=61	=61	=61	=61	=61	=61	=61	=61	=61	=61	=61	=61	=61	=61	=61	=61	=61	=61	=61	=61	=61	=61	=61	=61	=61	=61	=61	=61	=61	=61
2.r	.	2.C	.	2c	.	4f	.	2g	.	8cL	4C	.	4g	4f	jes-	.	4G	-lew-	.	2.r	2.r	.	2.r	.	2.r	.	4g	.	2.r	.
.	.	.	.	.	.	.	.	.	.	16B-L	.	.	.	.	.	.	.	.	.	.	.	.	.	.	.	.	.	.	.	.
.	.	.	.	.	.	.	.	.	.	16AJJ	.	.	.	.	.	.	.	.	.	.	.	.	.	.	.	.	.	.	.	.
.	.	.	.	.	.	4e	.	.	.	4G	4C	.	4cc	4e	-teś	.	4A	-ska	.	.	.	.	.	.	.	.	4a	.	.	.
.	.	.	.	8AL	.	8dL	.	8fL	.	(8AL	4C	.	(8fL	(8dL	i	.	4B-	pur-	.	.	.	.	.	.	.	.	4b-	.	.	.
.	.	.	.	8cJ	.	8eJ	.	8gJ	.	8cJ)	.	.	8gJ)	8eJ)	.	.	.	.	.	.	.	.	.	.	.	.	.	.	.	.
=62	=62	=62	=62	=62	=62	=62	=62	=62	=62	=62	=62	=62	=62	=62	=62	=62	=62	=62	=62	=62	=62	=62	=62	=62	=62	=62	=62	=62	=62	=62
2.r	.	2.F	.	2.c	.	2.f	.	2.a	.	(4.c	[2F	.	(4.a	[2f	peł-	.	(8AL	-pu-	.	2.r	2.r	.	2.r	.	2.r	.	(8aL	.	2.r	.
.	.	.	.	.	.	.	.	.	.	.	.	.	.	.	.	.	8cJ)	.	.	.	.	.	.	.	.	.	8ccJ	.	.	.
.	.	.	.	.	.	.	.	.	.	.	.	.	.	.	.	.	4.c	-ra.	.	.	.	.	.	.	.	.	8ffL	.	.	.
.	.	.	.	.	.	.	.	.	.	8B-L	.	.	8gL	.	.	.	.	.	.	.	.	.	.	.	.	.	8ccJ	.	.	.
.	.	.	.	.	.	.	.	.	.	8cJ)	8FL]	.	8aJ)	8fL]	.	.	.	.	.	.	.	.	.	.	.	.	8fL	.	.	.
.	.	.	.	.	.	.	.	.	.	8A	8FJ	.	8f	8fJ	-na	.	8r	.	.	.	.	.	.	.	.	.	8aJ	.	.	.
=63	=63	=63	=63	=63	=63	=63	=63	=63	=63	=63	=63	=63	=63	=63	=63	=63	=63	=63	=63	=63	=63	=63	=63	=63	=63	=63	=63	=63	=63	=63
2r	.	2C	.	2c	.	4f	.	2g	.	8cL	4C	.	4g	4f	wdzię-	.	2r	.	.	2.r	2.r	.	2.r	.	2.r	.	4.g)	.	2.r	.
.	.	.	.	.	.	.	.	.	.	16B-L	.	.	.	.	.	.	.	.	.	.	.	.	.	.	.	.	.	.	.	.
.	.	.	.	.	.	.	.	.	.	16AJJ	.	.	.	.	.	.	.	.	.	.	.	.	.	.	.	.	.	.	.	.
.	.	.	.	.	.	4e	.	.	.	4G	4C	.	4cc	4e	-ku,	.	.	.	.	.	.	.	.	.	.	.	.	.	.	.
.	.	.	.	.	.	.	.	.	.	.	.	.	.	.	.	.	.	.	.	.	.	.	.	.	.	.	8r	.	.	.
8r	.	4AA	.	(16ALL	.	4r	.	(16fLL	.	4c	4AA	.	4cc	4f	U-	.	8cL	Ca-	.	.	.	.	.	.	.	.	[4cc	.	.	.
.	.	.	.	16B-	.	.	.	16g	.	.	.	.	.	.	.	.	.	.	.	.	.	.	.	.	.	.	.	.	.	.
8AA	.	.	.	16c	.	.	.	16a	.	.	.	.	.	.	.	.	8cJ	-ła	.	.	.	.	.	.	.	.	.	.	.	.
.	.	.	.	16dJJ)	.	.	.	16b-JJ)	.	.	.	.	.	.	.	.	.	.	.	.	.	.	.	.	.	.	.	.	.	.
=64	=64	=64	=64	=64	=64	=64	=64	=64	=64	=64	=64	=64	=64	=64	=64	=64	=64	=64	=64	=64	=64	=64	=64	=64	=64	=64	=64	=64	=64	=64
8BB-L	.	2BB-	mf	2.d	mf	2.f	mf	2cc	mf	2d	2BB-	.	2cc	2f	-mi-	.	8B-L	pięk-	.	2.r	4r	.	2.r	.	2.r	.	2cc]	.	2r	.
8FJ	.	.	.	.	.	.	.	.	.	.	.	.	.	.	.	.	8cJ	-na	.	.	.	.	.	.	.	.	.	.	.	.
8B-	.	.	.	.	.	.	.	.	.	.	.	.	.	.	.	.	8d	jes-	.	.	10fL	.	.	.	.	.	.	.	.	.
.	.	.	.	.	.	.	.	.	.	.	.	.	.	.	.	.	.	.	.	.	10b-	.	.	.	.	.	.	.	.	.
4r	.	.	.	.	.	.	.	.	.	.	.	.	.	.	.	.	4F	-teś	.	.	.	.	.	.	.	.	.	.	.	.
.	.	.	.	.	.	.	.	.	.	.	.	.	.	.	.	.	.	.	.	.	10cc	.	.	.	.	.	.	.	.	.
.	.	8BB-L	.	.	.	.	.	4b-	.	4d	8BB-L	.	4b-	4f	-ło-	.	.	.	.	.	.	.	.	.	.	.	4b-	.	8ddL	.
.	.	.	.	.	.	.	.	.	.	.	.	.	.	.	.	.	.	.	.	.	10dd	.	.	.	.	.	.	.	.	.
!	!	!	!	!	!	!	!	!	!	!	!	!	!	!	!	!	!LO:TX:b:i:t=cresc.	!	!	!	!	!	!	!	!	!	!	!	!	!
8C	.	8CJ	.	.	.	.	.	.	.	.	8CJ	.	.	.	.	.	8G	i	.	.	.	.	.	.	.	.	.	.	8eeJ	.
.	.	.	.	.	.	.	.	.	.	.	.	.	.	.	.	.	.	.	.	.	10eeJ	.	.	.	.	.	.	.	.	.
=65	=65	=65	=65	=65	=65	=65	=65	=65	=65	=65	=65	=65	=65	=65	=65	=65	=65	=65	=65	=65	=65	=65	=65	=65	=65	=65	=65	=65	=65	=65
!LO:TX:b:i:t=cresc.	!	!LO:TX:b:i:t=cresc.	!	!LO:TX:b:i:t=cresc.	!	!LO:TX:b:i:t=cresc.	!	!LO:TX:b:i:t=cresc.	!	!	!	!	!	!	!	!	!	!	!	!	!	!	!	!	!	!	!LO:TX:b:i:t=cresc.	!	!LO:TX:b:i:t=cresc.	!
8DL	.	2.D	.	8FL	.	8dL	.	8aL	.	(4d	2D	.	(4.a	(4.f	-wa-	.	8AL	nie	.	4D: 4A:	4d: 4f: 4a: 4dd: 4ff:	.	2.r	.	2.r	.	4.a	.	4.ff	.
8AJ	.	.	.	8AJ	.	8fJ	.	8ddJ	.	.	.	.	.	.	.	.	8GJ	ma	.	.	.	.	.	.	.	.	.	.	.	.
8dL	.	.	.	8dL	.	8aL	.	8ffL	.	8FL	.	.	.	.	.	.	4A	w to-	.	4r	4r	.	.	.	.	.	.	.	.	.
8AJ	.	.	.	8fJ	.	8ddJ	.	8aaJ	.	8GJ)	.	.	8g)	8e)	.	.	.	.	.	.	.	.	.	.	.	.	8g	.	8ee	.
8FL	.	.	.	8dL	.	8aL	.	8ffL	.	8AL	4D	.	4f	4d	-na	.	4d	-bie	.	4r	16ddLL	.	.	.	.	.	4f	.	4dd	.
.	.	.	.	.	.	.	.	.	.	.	.	.	.	.	.	.	.	.	.	.	16ee	.	.	.	.	.	.	.	.	.
8DJ	.	.	.	8B-J	.	8fJ	.	8ddJ	.	8B-J	.	.	.	.	.	.	.	.	.	.	16ff	.	.	.	.	.	.	.	.	.
.	.	.	.	.	.	.	.	.	.	.	.	.	.	.	.	.	.	.	.	.	16aaJJ	.	.	.	.	.	.	.	.	.
=66	=66	=66	=66	=66	=66	=66	=66	=66	=66	=66	=66	=66	=66	=66	=66	=66	=66	=66	=66	=66	=66	=66	=66	=66	=66	=66	=66	=66	=66	=66
8CL	f	[2.C	f	[2.c	f	2g	f	4.cc	f	[2.c	[2.C	.	[2.g	(2.f	.	.	(4c	ska-	ff	4C: 4G: 4c:	4f: 4g: 4cc: 4gg:	.	2.r	.	2.r	.	[2.g	f	4.cc	f
8GJ	.	.	.	.	.	.	.	.	.	.	.	.	.	.	.	.	.	.	.	.	.	.	.	.	.	.	.	.	.	.
4c	.	.	.	.	.	.	.	.	.	.	.	.	.	.	.	.	8fL	.	.	4r	4r	.	.	.	.	.	.	.	.	.
.	.	.	.	.	.	.	.	8b-	.	.	.	.	.	.	.	.	8eJ	.	.	.	.	.	.	.	.	.	.	.	16ddLL	.
.	.	.	.	.	.	.	.	.	.	.	.	.	.	.	.	.	.	.	.	.	.	.	.	.	.	.	.	.	16eeJJ	.
4G	.	.	.	.	.	8fL	.	8aL	.	.	.	.	.	.	.	.	16dLL	.	.	4r	8ffL	.	.	.	.	.	.	.	4ff	.
.	.	.	.	.	.	.	.	.	.	.	.	.	.	.	.	.	16e	.	.	.	.	.	.	.	.	.	.	.	.	.
.	.	.	.	.	.	8dJ	.	8fJ	.	.	.	.	.	.	.	.	16d	.	.	.	8ggJ	.	.	.	.	.	.	.	.	.
.	.	.	.	.	.	.	.	.	.	.	.	.	.	.	.	.	16cJJ)	.	.	.	.	.	.	.	.	.	.	.	.	.
=67	=67	=67	=67	=67	=67	=67	=67	=67	=67	=67	=67	=67	=67	=67	=67	=67	=67	=67	=67	=67	=67	=67	=67	=67	=67	=67	=67	=67	=67	=67
4C	.	2C]	.	2c]	.	2e	.	2g	.	2c]	2C]	.	2g]	2e)	.	.	2c	-zy!	.	2.r	4c: 4e: 4g: 4cc: 4ee:	.	2.r	.	2.r	.	2g]	.	2ee	.
4r	.	.	.	.	.	.	.	.	.	.	.	.	.	.	.	.	.	.	.	.	4r	.	.	.	.	.	.	.	.	.
4r	.	4r	.	4r	.	4r	.	4r	.	8AL	8DL	f f	8fL	8dL	Jak-	f f	4r	.	.	.	4r	.	.	.	.	.	4r	.	4r	.
.	.	.	.	.	.	.	.	.	.	8cJ	8CJ	.	8gJ	8eJ	-że	.	.	.	.	.	.	.	.	.	.	.	.	.	.	.
=68	=68	=68	=68	=68	=68	=68	=68	=68	=68	=68	=68	=68	=68	=68	=68	=68	=68	=68	=68	=68	=68	=68	=68	=68	=68	=68	=68	=68	=68	=68
2.r	.	2.r	.	2.r	.	2.r	.	2.r	.	(4.c	[2F	.	(4.a	[2f	pięk-	.	2.r	.	.	2.r	2.r	.	2.r	.	2.r	.	2.r	.	2.r	.
.	.	.	.	.	.	.	.	.	.	8B-L	.	.	8gL	.	.	.	.	.	.	.	.	.	.	.	.	.	.	.	.	.
.	.	.	.	.	.	.	.	.	.	8cJ)	8FL]	.	8aJ)	8fL]	.	.	.	.	.	.	.	.	.	.	.	.	.	.	.	.
.	.	.	.	.	.	.	.	.	.	8A	8FJ	.	8f	8fJ	-na	.	.	.	.	.	.	.	.	.	.	.	.	.	.	.
=69	=69	=69	=69	=69	=69	=69	=69	=69	=69	=69	=69	=69	=69	=69	=69	=69	=69	=69	=69	=69	=69	=69	=69	=69	=69	=69	=69	=69	=69	=69
2.r	.	2.r	.	2.r	.	2.r	.	2.r	.	8cL	4C	.	4g	4f	jes-	.	2.r	.	.	2.r	2.r	.	2.r	.	2.r	.	2.r	.	2.r	.
.	.	.	.	.	.	.	.	.	.	16B-L	.	.	.	.	.	.	.	.	.	.	.	.	.	.	.	.	.	.	.	.
.	.	.	.	.	.	.	.	.	.	16AJJ	.	.	.	.	.	.	.	.	.	.	.	.	.	.	.	.	.	.	.	.
.	.	.	.	.	.	.	.	.	.	4G	4C	.	4cc	4e	-teś	.	.	.	.	.	.	.	.	.	.	.	.	.	.	.
.	.	.	.	.	.	.	.	.	.	(8AL	4C	.	(8fL	(8dL	i	.	.	.	.	.	.	.	.	.	.	.	.	.	.	.
.	.	.	.	.	.	.	.	.	.	8cJ)	.	.	8gJ)	8eJ)	.	.	.	.	.	.	.	.	.	.	.	.	.	.	.	.
=70	=70	=70	=70	=70	=70	=70	=70	=70	=70	=70	=70	=70	=70	=70	=70	=70	=70	=70	=70	=70	=70	=70	=70	=70	=70	=70	=70	=70	=70	=70
2.r	.	2.r	.	2.r	.	2.r	.	2.r	.	(4.c	[2F	.	(4.a	[2f	peł-	.	2.r	.	.	2.r	2.r	.	2.r	.	2.r	.	2.r	.	2.r	.
.	.	.	.	.	.	.	.	.	.	8B-L	.	.	8gL	.	.	.	.	.	.	.	.	.	.	.	.	.	.	.	.	.
.	.	.	.	.	.	.	.	.	.	8cJ)	8FL]	.	8aJ)	8fL]	.	.	.	.	.	.	.	.	.	.	.	.	.	.	.	.
.	.	.	.	.	.	.	.	.	.	8A	8FJ	.	8f	8fJ	-na	.	.	.	.	.	.	.	.	.	.	.	.	.	.	.
=71	=71	=71	=71	=71	=71	=71	=71	=71	=71	=71	=71	=71	=71	=71	=71	=71	=71	=71	=71	=71	=71	=71	=71	=71	=71	=71	=71	=71	=71	=71
2.r	.	2.r	.	2.r	.	2.r	.	2.r	.	8cL	4C	.	4g	4f	wdzię-	.	2.r	.	.	2.r	2.r	.	2.r	.	2.r	.	2.r	.	2.r	.
.	.	.	.	.	.	.	.	.	.	16B-L	.	.	.	.	.	.	.	.	.	.	.	.	.	.	.	.	.	.	.	.
.	.	.	.	.	.	.	.	.	.	16AJJ	.	.	.	.	.	.	.	.	.	.	.	.	.	.	.	.	.	.	.	.
.	.	.	.	.	.	.	.	.	.	4G	4C	.	4cc	4e	-ku,	.	.	.	.	.	.	.	.	.	.	.	.	.	.	.
.	.	.	.	.	.	.	.	.	.	4c	4AA	.	4cc	4f	U-	.	.	.	.	.	.	.	.	.	.	.	.	.	.	.
=72	=72	=72	=72	=72	=72	=72	=72	=72	=72	=72	=72	=72	=72	=72	=72	=72	=72	=72	=72	=72	=72	=72	=72	=72	=72	=72	=72	=72	=72	=72
2.r	.	2.r	.	2.r	.	2.r	.	2.r	.	2d	2BB-	.	2cc	2f	-mi-	.	2.r	.	.	2.r	2.r	.	2.r	.	2.r	.	2.r	.	2.r	.
.	.	.	.	.	.	.	.	.	.	4d	8BB-L	.	4b-	4f	-ło-	.	.	.	.	.	.	.	.	.	.	.	.	.	.	.
.	.	.	.	.	.	.	.	.	.	.	8CJ	.	.	.	.	.	.	.	.	.	.	.	.	.	.	.	.	.	.	.
=73	=73	=73	=73	=73	=73	=73	=73	=73	=73	=73	=73	=73	=73	=73	=73	=73	=73	=73	=73	=73	=73	=73	=73	=73	=73	=73	=73	=73	=73	=73
2.r	.	2.r	.	2.r	.	2.r	.	2.r	.	(4d	2D	.	(4.a	(4.f	-wa-	.	2.r	.	.	2.r	2.r	.	2.r	.	2.r	.	2.r	.	2.r	.
.	.	.	.	.	.	.	.	.	.	8FL	.	.	.	.	.	.	.	.	.	.	.	.	.	.	.	.	.	.	.	.
.	.	.	.	.	.	.	.	.	.	8GJ)	.	.	8g)	8e)	.	.	.	.	.	.	.	.	.	.	.	.	.	.	.	.
.	.	.	.	.	.	.	.	.	.	8AL	4D	.	4f	4d	-na	.	.	.	.	.	.	.	.	.	.	.	.	.	.	.
.	.	.	.	.	.	.	.	.	.	8B-J	.	.	.	.	.	.	.	.	.	.	.	.	.	.	.	.	.	.	.	.
=74	=74	=74	=74	=74	=74	=74	=74	=74	=74	=74	=74	=74	=74	=74	=74	=74	=74	=74	=74	=74	=74	=74	=74	=74	=74	=74	=74	=74	=74	=74
!	!	!	!	!	!	!	!	!	!	!	!	!	!	!	!	!	!	!	!	!	!	!	!	!	!	!	!	!	!LO:TX:a:t=rit.	!
!	!	!	!	!	!	!	!	!	!	!	!	!	!	!	!	!	!	!	!	!	!	!	!	!	!	!	!	!	!LO:TX:a:t=rit.	!
!	!	!	!	!	!	!	!	!	!	!	!	!	!	!	!	!	!	!	!	!	!	!	!	!	!	!	!	!	!LO:TX:a:t=rit.	!
!	!	!	!	!	!	!	!	!	!	!	!	!	!	!	!	!	!	!	!	!	!	!	!	!	!	!	!	!	!LO:TX:a:t=rit.	!
2.r	.	2.r	.	2.r	.	2.r	.	2.r	.	[2.c	[2.C	.	[2.g	(2.f	.	.	2.r	.	.	2.r	2.r	.	2.r	.	2.r	.	2.r	.	2.r	.
=75	=75	=75	=75	=75	=75	=75	=75	=75	=75	=75	=75	=75	=75	=75	=75	=75	=75	=75	=75	=75	=75	=75	=75	=75	=75	=75	=75	=75	=75	=75
2r	.	2r	.	2r	.	2r	.	2r	.	2c]	2C]	.	2g]	2e)	.	.	2.r	.	.	2.r	2.r	.	2.r	.	2.r	.	2.r	.	2.r	.
4r	.	4r	.	4r	.	4r	.	4cc	mf	4r	4r	.	4r	4r	.	.	.	.	.	.	.	.	.	.	.	.	.	.	.	.
*	*	*	*	*	*	*	*	*	*	*v	*v	*	*	*	*	*	*	*	*	*	*	*	*	*	*	*	*	*	*	*
*	*	*	*	*	*	*	*	*	*	*	*	*v	*v	*	*	*	*	*	*	*	*	*	*	*	*	*	*	*	*
=76	=76	=76	=76	=76	=76	=76	=76	=76	=76	=76	=76	=76	=76	=76	=76	=76	=76	=76	=76	=76	=76	=76	=76	=76	=76	=76	=76	=76
4BB-	mf	8r	.	8r	.	2f	mf	(4.dd	.	2.r	.	2.r	.	.	2.r	.	.	2.r	2.r	.	2.r	.	2.r	.	2.r	.	2.r	.
.	.	(8BB-	mf	(8F	mf	.	.	.	.	.	.	.	.	.	.	.	.	.	.	.	.	.	.	.	.	.	.	.
4.r	.	8FL	.	8dL	.	.	.	.	.	.	.	.	.	.	.	.	.	.	.	.	.	.	.	.	.	.	.	.
.	.	8DJ	.	8B-J	.	.	.	8cc	.	.	.	.	.	.	.	.	.	.	.	.	.	.	.	.	.	.	.	.
.	.	8B-)	.	8d)	.	8gL	.	8b-L	.	.	.	.	.	.	.	.	.	.	.	.	.	.	.	.	.	.	.	.
8BB-	.	8r	.	8r	.	8fJ	.	8aJ)	.	.	.	.	.	.	.	.	.	.	.	.	.	.	.	.	.	.	.	.
=77	=77	=77	=77	=77	=77	=77	=77	=77	=77	=77	=77	=77	=77	=77	=77	=77	=77	=77	=77	=77	=77	=77	=77	=77	=77	=77	=77	=77
4C	.	8r	.	8r	.	(4e	.	(4g	.	2.r	.	2.r	.	.	2.r	.	.	2.r	2.r	.	2.r	.	2.r	.	2.r	.	2.r	.
.	.	(8C	.	(8G	.	.	.	.	.	.	.	.	.	.	.	.	.	.	.	.	.	.	.	.	.	.	.	.
4.r	.	8GL	.	8eL	.	4g	.	4cc	.	.	.	.	.	.	.	.	.	.	.	.	.	.	.	.	.	.	.	.
.	.	8EJ	.	8cJ	.	.	.	.	.	.	.	.	.	.	.	.	.	.	.	.	.	.	.	.	.	.	.	.
.	.	8c)	.	8e)	.	4cc)	.	4ee)	.	.	.	.	.	.	.	.	.	.	.	.	.	.	.	.	.	.	.	.
8C	.	8r	.	8r	.	.	.	.	.	.	.	.	.	.	.	.	.	.	.	.	.	.	.	.	.	.	.	.
=78	=78	=78	=78	=78	=78	=78	=78	=78	=78	=78	=78	=78	=78	=78	=78	=78	=78	=78	=78	=78	=78	=78	=78	=78	=78	=78	=78	=78
4D	.	8r	.	8r	.	4.a	.	(4.ff	.	2.r	.	2.r	.	.	2.r	.	.	2.r	2.r	.	2.r	.	2.r	.	2.r	.	2.r	.
.	.	(8D	.	(8A	.	.	.	.	.	.	.	.	.	.	.	.	.	.	.	.	.	.	.	.	.	.	.	.
4.r	.	8AL	.	8fL	.	.	.	.	.	.	.	.	.	.	.	.	.	.	.	.	.	.	.	.	.	.	.	.
.	.	8FJ	.	8dJ	.	8g	.	8ee	.	.	.	.	.	.	.	.	.	.	.	.	.	.	.	.	.	.	.	.
.	.	8d)	.	8f)	.	8aL	.	8ddL	.	.	.	.	.	.	.	.	.	.	.	.	.	.	.	.	.	.	.	.
8D	.	8r	.	8r	.	8gJ	.	[8ccJ)	.	.	.	.	.	.	.	.	.	.	.	.	.	.	.	.	.	.	.	.
=79	=79	=79	=79	=79	=79	=79	=79	=79	=79	=79	=79	=79	=79	=79	=79	=79	=79	=79	=79	=79	=79	=79	=79	=79	=79	=79	=79	=79
4AA	.	8r	.	8r	.	2e	.	2cc]	.	2.r	.	2.r	.	.	2.r	.	.	2.r	2.r	.	2.r	.	2.r	.	2.r	.	2.r	.
.	.	(8AA	.	(8E	.	.	.	.	.	.	.	.	.	.	.	.	.	.	.	.	.	.	.	.	.	.	.	.
4.r	.	8EL	.	8cL	.	.	.	.	.	.	.	.	.	.	.	.	.	.	.	.	.	.	.	.	.	.	.	.
.	.	8CJ	.	8AJ	.	.	.	.	.	.	.	.	.	.	.	.	.	.	.	.	.	.	.	.	.	.	.	.
.	.	8A)	.	8c)	.	4g	.	4a	.	.	.	.	.	.	.	.	.	.	.	.	.	.	.	.	.	.	.	.
8AA	.	8r	.	8r	.	.	.	.	.	.	.	.	.	.	.	.	.	.	.	.	.	.	.	.	.	.	.	.
=80	=80	=80	=80	=80	=80	=80	=80	=80	=80	=80	=80	=80	=80	=80	=80	=80	=80	=80	=80	=80	=80	=80	=80	=80	=80	=80	=80	=80
4BB-	.	8r	.	8r	.	2f	.	(4.dd	.	2.r	.	2.r	.	.	2.r	.	.	2.r	2.r	.	2.r	.	2.r	.	2.r	.	2.r	.
.	.	(8BB-	.	(8F	.	.	.	.	.	.	.	.	.	.	.	.	.	.	.	.	.	.	.	.	.	.	.	.
4.r	.	8FL	.	8dL	.	.	.	.	.	.	.	.	.	.	.	.	.	.	.	.	.	.	.	.	.	.	.	.
.	.	8DJ	.	8B-J	.	.	.	8cc	.	.	.	.	.	.	.	.	.	.	.	.	.	.	.	.	.	.	.	.
.	.	8F)	.	8d)	.	8gL	.	8b-L	.	.	.	.	.	.	.	.	.	.	.	.	.	.	.	.	.	.	.	.
8AA	.	8r	.	8r	.	8fJ	.	8aJ)	.	.	.	.	.	.	.	.	.	.	.	.	.	.	.	.	.	.	.	.
=81	=81	=81	=81	=81	=81	=81	=81	=81	=81	=81	=81	=81	=81	=81	=81	=81	=81	=81	=81	=81	=81	=81	=81	=81	=81	=81	=81	=81
4GG	.	8r	.	8r	.	2.d	.	(4b-	.	2.r	.	2.r	.	.	2.r	.	.	2.r	2.r	.	2.r	.	2r	.	2.r	.	2r	.
.	.	(8GG	.	(8D	.	.	.	.	.	.	.	.	.	.	.	.	.	.	.	.	.	.	.	.	.	.	.	.
4.r	.	8DL	.	8B-L	.	.	.	4a	.	.	.	.	.	.	.	.	.	.	.	.	.	.	.	.	.	.	.	.
.	.	8BB-J	.	8GJ	.	.	.	.	.	.	.	.	.	.	.	.	.	.	.	.	.	.	.	.	.	.	.	.
.	.	8G)	.	8c)	.	.	.	4f)	.	.	.	.	.	.	.	.	.	.	.	.	.	.	8dL	mf	.	.	8ffL	mf
8GG	.	8r	.	8r	.	.	.	.	.	.	.	.	.	.	.	.	.	.	.	.	.	.	8B-J	.	.	.	8ddJ	.
=82	=82	=82	=82	=82	=82	=82	=82	=82	=82	=82	=82	=82	=82	=82	=82	=82	=82	=82	=82	=82	=82	=82	=82	=82	=82	=82	=82	=82
4C	.	8r	.	8r	.	[2.e	.	[2.g	.	2.r	.	2.r	.	.	2.r	.	.	2.r	2.r	.	2.r	.	16cLL	.	2.r	.	16eeLL	.
.	.	.	.	.	.	.	.	.	.	.	.	.	.	.	.	.	.	.	.	.	.	.	16d	.	.	.	16ff	.
.	.	(8C	.	(8G	.	.	.	.	.	.	.	.	.	.	.	.	.	.	.	.	.	.	16e	.	.	.	16gg	.
.	.	.	.	.	.	.	.	.	.	.	.	.	.	.	.	.	.	.	.	.	.	.	16fJJ	.	.	.	16aaJJ	.
4.r	.	8GL	.	8cL	.	.	.	.	.	.	.	.	.	.	.	.	.	.	.	.	.	.	8eL	.	.	.	8ggL	.
.	.	8cJ	.	8eJ	.	.	.	.	.	.	.	.	.	.	.	.	.	.	.	.	.	.	16dL	.	.	.	16ffL	.
.	.	.	.	.	.	.	.	.	.	.	.	.	.	.	.	.	.	.	.	.	.	.	16eJJ	.	.	.	16ggJJ	.
.	.	8GL	.	8cL)	.	.	.	.	.	.	.	.	.	.	.	.	.	.	.	.	.	.	8fL	.	.	.	8aaL	.
8GG	.	8EJ)	.	8GJ	.	.	.	.	.	.	.	.	.	.	.	.	.	.	.	.	.	.	8eJ	.	.	.	8cccJ	.
=83	=83	=83	=83	=83	=83	=83	=83	=83	=83	=83	=83	=83	=83	=83	=83	=83	=83	=83	=83	=83	=83	=83	=83	=83	=83	=83	=83	=83
4C	.	2C	<	2G	<	2e]	<	2g]	<	2.r	.	2.r	.	.	2.r	.	.	2r	2.r	.	2.r	.	4f	<	2.r	.	4ddd	<
4.r	.	.	.	.	.	.	.	.	.	.	.	.	.	.	.	.	.	.	.	.	.	.	8gL	.	.	.	8eeeL	.
.	.	.	.	.	.	.	.	.	.	.	.	.	.	.	.	.	.	.	.	.	.	.	8b-J	.	.	.	8dddJ	.
.	.	8CL	.	8EL	.	4g	[[	4cc	[[	.	.	.	.	.	.	.	.	4C	.	.	.	.	(16ccLL	.	.	.	(16cccLL	.
.	.	.	.	.	.	.	.	.	.	.	.	.	.	.	.	.	.	.	.	.	.	.	16g	.	.	.	16ddd	.
8AA	.	8AAJ	[[	8GJ	[[	.	.	.	.	.	.	.	.	.	.	.	.	.	.	.	.	.	16a	.	.	.	16ccc	.
.	.	.	.	.	.	.	.	.	.	.	.	.	.	.	.	.	.	.	.	.	.	.	16eJJ	[[	.	.	16aaJJ	[[
=84	=84	=84	=84	=84	=84	=84	=84	=84	=84	=84	=84	=84	=84	=84	=84	=84	=84	=84	=84	=84	=84	=84	=84	=84	=84	=84	=84	=84
4BB-	f	8r	.	8r	.	2f	f	(4.dd	f	2.r	.	2.r	.	.	2.r	.	.	4BB-: 4F: 4B-:	4f: 4b-: 4dd: 4ff: 4bb-:	.	4BB-	f	2d)	f	2.r	.	2ff)	f
.	.	(8BB-	f	(8F	f	.	.	.	.	.	.	.	.	.	.	.	.	.	.	.	.	.	.	.	.	.	.	.
4.r	.	8FL	.	8dL	.	.	.	.	.	.	.	.	.	.	.	.	.	4r	4r	.	8B-L	.	.	.	.	.	.	.
.	.	8DJ	.	8B-J	.	.	.	8cc	.	.	.	.	.	.	.	.	.	.	.	.	8FJ	.	.	.	.	.	.	.
.	.	8B-)	.	8d)	.	8gL	.	8b-L	.	.	.	.	.	.	.	.	.	4r	4r	.	8DL	.	4r	.	.	.	4r	.
8BB-	.	8r	.	8r	.	8fJ	.	8aJ)	.	.	.	.	.	.	.	.	.	.	.	.	8BB-J	.	.	.	.	.	.	.
=85	=85	=85	=85	=85	=85	=85	=85	=85	=85	=85	=85	=85	=85	=85	=85	=85	=85	=85	=85	=85	=85	=85	=85	=85	=85	=85	=85	=85
4C	.	8r	.	8r	.	(4e	.	(4g	.	2.r	.	2.r	.	.	2.r	.	.	4C: 4G: 4c:	4e: 4g: 4cc: 4ee: 4gg:	.	4C	.	2.r	.	8eeL	f	2.r	.
.	.	(8C	.	(8G	.	.	.	.	.	.	.	.	.	.	.	.	.	.	.	.	.	.	.	.	8ddJ	.	.	.
4.r	.	8GL	.	8eL	.	4g	.	4cc	.	.	.	.	.	.	.	.	.	4r	4r	.	4c	.	.	.	8ccL	.	.	.
.	.	8EJ	.	8cJ	.	.	.	.	.	.	.	.	.	.	.	.	.	.	.	.	.	.	.	.	8gJ	.	.	.
.	.	8c)	.	8e)	.	4cc)	.	4ee)	.	.	.	.	.	.	.	.	.	4r	4r	.	8GL	.	.	.	8eL	.	.	.
8C	.	8r	.	8r	.	.	.	.	.	.	.	.	.	.	.	.	.	.	.	.	8EJ	.	.	.	8cJ	.	.	.
=86	=86	=86	=86	=86	=86	=86	=86	=86	=86	=86	=86	=86	=86	=86	=86	=86	=86	=86	=86	=86	=86	=86	=86	=86	=86	=86	=86	=86
4D	.	8r	.	8r	.	4.a	.	(4.ff	.	2.r	.	2.r	.	.	2.r	.	.	4D: 4A:	4d: 4f: 4a: 4dd: 4ff:	.	4D	.	2.r	.	8dL	.	2.r	.
.	.	(8D	.	(8A	.	.	.	.	.	.	.	.	.	.	.	.	.	.	.	.	.	.	.	.	8fJ	.	.	.
4.r	.	8AL	.	8fL	.	.	.	.	.	.	.	.	.	.	.	.	.	4r	4r	.	4AA	.	.	.	8aL	.	.	.
.	.	8FJ	.	8dJ	.	8g	.	8ee	.	.	.	.	.	.	.	.	.	.	.	.	.	.	.	.	8fJ	.	.	.
.	.	8d)	.	8f)	.	8aL	.	8ddL	.	.	.	.	.	.	.	.	.	4r	4r	.	8DDL	.	.	.	8ddL	.	.	.
8D	.	8r	.	8r	.	8gJ	.	[8ccJ)	.	.	.	.	.	.	.	.	.	.	.	.	8FFJ	.	.	.	8aJ	.	.	.
=87	=87	=87	=87	=87	=87	=87	=87	=87	=87	=87	=87	=87	=87	=87	=87	=87	=87	=87	=87	=87	=87	=87	=87	=87	=87	=87	=87	=87
4AA	.	8r	.	8r	.	2e	.	2cc]	.	2.r	.	2.r	.	.	2.r	.	.	4AA: 4E: 4A:	4e: 4a: 4cc: 4ee:	.	2AA	.	2.r	.	(4cc	.	2.r	.
.	.	(8AA	.	(8E	.	.	.	.	.	.	.	.	.	.	.	.	.	.	.	.	.	.	.	.	.	.	.	.
4.r	.	8EL	.	8cL	.	.	.	.	.	.	.	.	.	.	.	.	.	4r	4r	.	.	.	.	.	4e	.	.	.
.	.	8CJ	.	8AJ	.	.	.	.	.	.	.	.	.	.	.	.	.	.	.	.	.	.	.	.	.	.	.	.
.	.	8A)	.	8c)	.	4g	.	4a	.	.	.	.	.	.	.	.	.	4r	4r	.	16ELL	.	.	.	4a	.	.	.
.	.	.	.	.	.	.	.	.	.	.	.	.	.	.	.	.	.	.	.	.	16D	.	.	.	.	.	.	.
8AA	.	8r	.	8r	.	.	.	.	.	.	.	.	.	.	.	.	.	.	.	.	16C	.	.	.	.	.	.	.
.	.	.	.	.	.	.	.	.	.	.	.	.	.	.	.	.	.	.	.	.	16AAJJ	.	.	.	.	.	.	.
=88	=88	=88	=88	=88	=88	=88	=88	=88	=88	=88	=88	=88	=88	=88	=88	=88	=88	=88	=88	=88	=88	=88	=88	=88	=88	=88	=88	=88
4BB-	.	8r	.	8r	.	2f	.	(4.dd	.	2.r	.	2.r	.	.	2.r	.	.	4BB-: 4F: 4B-:	4d: 4f: 4b-: 4dd:	.	4BB-	.	2.r	.	2f)	.	2.r	.
.	.	(8BB-	.	(8F	.	.	.	.	.	.	.	.	.	.	.	.	.	.	.	.	.	.	.	.	.	.	.	.
4.r	.	8FL	.	8dL	.	.	.	.	.	.	.	.	.	.	.	.	.	4r	4r	.	4D	.	.	.	.	.	.	.
.	.	8DJ	.	8B-J	.	.	.	8cc	.	.	.	.	.	.	.	.	.	.	.	.	.	.	.	.	.	.	.	.
.	.	8F)	.	8d)	.	8gL	.	8b-L	.	.	.	.	.	.	.	.	.	4r	4r	.	8FL	.	.	.	4r	.	.	.
8AA	.	8r	.	8r	.	8fJ	.	8aJ)	.	.	.	.	.	.	.	.	.	.	.	.	8AJ	.	.	.	.	.	.	.
=89	=89	=89	=89	=89	=89	=89	=89	=89	=89	=89	=89	=89	=89	=89	=89	=89	=89	=89	=89	=89	=89	=89	=89	=89	=89	=89	=89	=89
4GG	.	8r	.	8r	.	2.d	.	(4b-	.	2.r	.	2.r	.	.	2.r	.	.	4GG: 4D: 4G:	4d: 4g: 4b-: 4dd:	.	4G	.	2.r	.	2.r	.	2.r	.
.	.	(8GG	.	(8D	.	.	.	.	.	.	.	.	.	.	.	.	.	.	.	.	.	.	.	.	.	.	.	.
4.r	.	8DL	.	8B-L	.	.	.	4a	.	.	.	.	.	.	.	.	.	4r	4r	.	8DL	.	.	.	.	.	.	.
.	.	8BB-J	.	8GJ	.	.	.	.	.	.	.	.	.	.	.	.	.	.	.	.	8BB-J	.	.	.	.	.	.	.
.	.	8G)	.	8c)	.	.	.	4f)	.	.	.	.	.	.	.	.	.	4r	4r	.	8GGL	.	.	.	.	.	.	.
8GG	.	8r	.	8r	.	.	.	.	.	.	.	.	.	.	.	.	.	.	.	.	8DJ	.	.	.	.	.	.	.
=90	=90	=90	=90	=90	=90	=90	=90	=90	=90	=90	=90	=90	=90	=90	=90	=90	=90	=90	=90	=90	=90	=90	=90	=90	=90	=90	=90	=90
4C	.	8r	.	8r	.	[2.e	.	[2.g	.	2.r	.	2.r	.	.	2.r	.	.	16CLL	4.r	.	2.C	.	8eL	.	2.r	.	2r	.
.	.	.	.	.	.	.	.	.	.	.	.	.	.	.	.	.	.	16G	.	.	.	.	.	.	.	.	.	.
.	.	(8C	.	(8G	.	.	.	.	.	.	.	.	.	.	.	.	.	16E	.	.	.	.	8fJ	.	.	.	.	.
.	.	.	.	.	.	.	.	.	.	.	.	.	.	.	.	.	.	16cJJ	.	.	.	.	.	.	.	.	.	.
4.r	.	8GL	.	8cL	.	.	.	.	.	.	.	.	.	.	.	.	.	16GLL	.	.	.	.	8eL	.	.	.	.	.
.	.	.	.	.	.	.	.	.	.	.	.	.	.	.	.	.	.	16eJJ	.	.	.	.	.	.	.	.	.	.
.	.	8cJ	.	8eJ	.	.	.	.	.	.	.	.	.	.	.	.	.	16r	16cLL	.	.	.	8dJ	.	.	.	.	.
.	.	.	.	.	.	.	.	.	.	.	.	.	.	.	.	.	.	16r	16gJJ	.	.	.	.	.	.	.	.	.
.	.	8GL	.	8cL)	.	.	.	.	.	.	.	.	.	.	.	.	.	4r	16eLL	.	.	.	8cL	.	.	.	8eeL	.
.	.	.	.	.	.	.	.	.	.	.	.	.	.	.	.	.	.	.	16cc	.	.	.	.	.	.	.	.	.
8GG	.	8EJ)	.	8GJ	.	.	.	.	.	.	.	.	.	.	.	.	.	.	16g	.	.	.	8dJ	.	.	.	8ffJ	.
.	.	.	.	.	.	.	.	.	.	.	.	.	.	.	.	.	.	.	16eeJJ	.	.	.	.	.	.	.	.	.
=91	=91	=91	=91	=91	=91	=91	=91	=91	=91	=91	=91	=91	=91	=91	=91	=91	=91	=91	=91	=91	=91	=91	=91	=91	=91	=91	=91	=91
4C	.	2.C	.	2G	.	2e]	.	4g]	.	2.r	.	2.r	.	.	2r	.	.	2C: 2G: 2c:	2e: 2g: 2cc: 2ee: 2gg:	.	2.r	.	16eLL	.	4r	.	4gg	.
.	.	.	.	.	.	.	.	.	.	.	.	.	.	.	.	.	.	.	.	.	.	.	16d	.	.	.	.	.
.	.	.	.	.	.	.	.	.	.	.	.	.	.	.	.	.	.	.	.	.	.	.	16e	.	.	.	.	.
.	.	.	.	.	.	.	.	.	.	.	.	.	.	.	.	.	.	.	.	.	.	.	16fJJ	.	.	.	.	.
4r	.	.	.	.	.	.	.	4cc	.	.	.	.	.	.	.	.	.	.	.	.	.	.	2g	.	8gL	.	4cc	.
.	.	.	.	.	.	.	.	.	.	.	.	.	.	.	.	.	.	.	.	.	.	.	.	.	8eJ	.	.	.
4C	.	.	.	4c	.	4g	.	8eeL	.	.	.	.	.	.	4r	.	.	4r	4r	.	.	.	.	.	8gL	.	8eeL	.
.	.	.	.	.	.	.	.	8ffJ	.	.	.	.	.	.	.	.	.	.	.	.	.	.	.	.	8ccJ	.	8ffJ	.
=92	=92	=92	=92	=92	=92	=92	=92	=92	=92	=92	=92	=92	=92	=92	=92	=92	=92	=92	=92	=92	=92	=92	=92	=92	=92	=92	=92	=92
4D	.	2.D	.	[2.c	.	2.b-	.	[2.ff	.	2.r	.	2.r	.	.	2.r	.	.	2.r	2.r	.	2.r	.	8r	.	2.b-	.	[2.ff	.
.	.	.	.	.	.	.	.	.	.	.	.	.	.	.	.	.	.	.	.	.	.	.	8f	.	.	.	.	.
8r	.	.	.	.	.	.	.	.	.	.	.	.	.	.	.	.	.	.	.	.	.	.	8b-L	.	.	.	.	.
8B-	.	.	.	.	.	.	.	.	.	.	.	.	.	.	.	.	.	.	.	.	.	.	8ccJ	.	.	.	.	.
8FL	.	.	.	.	.	.	.	.	.	.	.	.	.	.	.	.	.	.	.	.	.	.	8ddL	.	.	.	.	.
8DJ	.	.	.	.	.	.	.	.	.	.	.	.	.	.	.	.	.	.	.	.	.	.	8b-J	.	.	.	.	.
=93	=93	=93	=93	=93	=93	=93	=93	=93	=93	=93	=93	=93	=93	=93	=93	=93	=93	=93	=93	=93	=93	=93	=93	=93	=93	=93	=93	=93
2.FF	.	2.F	.	2.c]	.	2.a	.	2.ff]	.	2.r	.	2.r	.	.	2.r	.	.	2.r	2r	.	2r	.	2.cc	.	2.a	.	2.ff]	.
.	.	.	.	.	.	.	.	.	.	.	.	.	.	.	.	.	.	.	4r	.	4r	.	.	.	.	.	.	.
==94	==94	==94	==94	==94	==94	==94	==94	==94	==94	==94	==94	==94	==94	==94	==94	==94	==94	==94	==94	==94	==94	==94	==94	==94	==94	==94	==94	==94
*-	*-	*-	*-	*-	*-	*-	*-	*-	*-	*-	*-	*-	*-	*-	*-	*-	*-	*-	*-	*-	*-	*-	*-	*-	*-	*-	*-	*-
!!!system-decoration: [(s1,s2,s3,s4)]{(s5,s6)}(s7)[(s8,s9)][(s10,s11s12,s13,s14)]
!!!YEM: Copyright by Tomasz Kozubek. All rights reserved
!!!RDF**kern: Z = caesura
